!!!!SEGMENT: pl-cz--iii-744--001-003_zebrowski-marcin-jozef--missa-ex-d-patrem.krn
!!!cenid: 17xx:2345
!!!COM: Żebrowski, Marcin Józef
!!!COM-rismid: pe30020322
!!!CDT: 1702-1770/06/29
!!!CNT: Polish
!!!OPR: Missa ex D
!!!OTL: Patrem
!!!OMV: 003
!!!PDT: 1782
!!!AGN:
!!!SMS-siglum: PL-CZ
!!!SMS-shelfmark: III-744
!!!SMS-shelfwork: 001-003 M
!!!SMS-variant:
!!!SMS-altvar:
!!!NIFC-rismid: 300033496
!!!URL-scan: https://repozytorium.nifc.pl/islandora/object/pl-cz%3A25261/datastream/PDF/view
!!!ONB-nifc: UWAGA: części Mszy: 1. Kyrie, 2. Gloria, 3. Patrem, 4. Sanctus, 5. Benedictus, 6. Agnus Dei
!!!AIN: 1 bass 2 clrno 1 organ 1 soprn 2 violn
!!!key: D
**kern	**dynam	**fb	**kern	**dynam	**kern	**dynam	**kern	**text	**kern	**text	**kern	**kern
*part7	*part7	*	*part6	*part6	*part5	*part5	*part4	*part4	*part3	*part3	*part2	*part1
*staff7	*	*	*staff6	*	*staff5	*	*staff4	*staff4	*staff3	*staff3	*staff2	*staff1
*group	*group	*	*group3	*group3	*group3	*group3	*group2	*group2	*group2	*group2	*group1	*group1
*I"Organo.	*	*	*I"Violino Secundo.	*	*I"Violino Primo.	*	*I"Baſso.	*	*I"Canto.	*	*I"Clarino Secundo. ex D ad libitum.	*I"Clarino Primo. Ex D: ad libitum.
*I'org	*	*	*I'vl 2	*	*I'vl 1	*	*I'B	*	*I'S	*	*I'clno 2	*I'clno 1
*Iorgan	*	*	*Ivioln	*	*Ivioln	*	*Ibass	*	*Isoprn	*	*Iclrno	*Iclrno
*ICklav	*	*	*ICstr	*	*ICstr	*	*ICvox	*	*ICvox	*	*ICbras	*ICbras
*clefF4	*	*	*clefG2	*	*clefG2	*	*clefF4	*	*clefC1	*	*clefG2	*clefG2
*	*	*	*	*	*	*	*	*	*	*	*ITrd-1c-2	*ITrd-1c-2
*k[f#c#]	*	*	*k[f#c#]	*	*k[f#c#]	*	*k[f#c#]	*	*k[f#c#]	*	*k[f#c#]	*k[f#c#]
*D:	*	*	*D:	*	*D:	*	*D:	*	*D:	*	*	*
*M4/4	*	*	*M4/4	*	*M4/4	*	*M4/4	*	*M4/4	*	*M4/4	*M4/4
*met(c)	*	*	*met(c)	*	*met(c)	*	*met(c)	*	*met(c)	*	*met(c)	*met(c)
=1	=1	=1	=1	=1	=1	=1	=1	=1	=1	=1	=1	=1
*	*	*above	*	*	*	*	*	*	*	*	*	*
!LO:TX:b:i:t=Patrem.	!	!	!LO:TX:b:i:t=Patrem	!	!LO:TX:b:i:t=Patrem.	!	!	!	!	!	!LO:TX:b:i:t=Patrem	!LO:TX:b:i:t=Patrem
!LO:TX:a:i:t=Allo&colon; Tut&colon;	!	!	!LO:TX:a:i:t=Allo&colon;	!	!LO:TX:a:i:t=Allo&colon;	!	!LO:TX:a:i:t=Allo&colon;	!	!LO:TX:a:i:t=Allo&colon;	!	!LO:TX:a:i:t=allo&colon;	!LO:TX:a:i:t=allo&colon;
!	!	!	!	!	!	!	!	!	!LO:TX:a:t=P:problem=w źróðle znaki przykluczowe f# cc# 	!	!	!
4D/	.	.	4ff#\	.	4aa\	.	4d\	Pa-	4ff#\	Pa-	4ff#\	4aa\
8D/L	.	.	8ff#\L	.	8aa\L	.	8d\	-trem	8ff#\	-trem	8ff#\L	8aa\L
8C#/J	.	X X 6	8ee\J	.	8aa\J	.	8c#\	om-	8ee\	om-	8ee\J	8aa\J
8D/L	.	.	8ff#\L	.	8aa\L	.	8d\	-ni-	8ff#\	-ni-	8ff#\L	8aa\L
8C#/J	.	X X 6	8ee\J	.	8aa\J	.	8c#\	-po-	8ee\	-po-	8ee\J	8aa\J
.	.	.	8qqee/	.	8qqaa/	.	.	.	8qqee/	.	.	.
4BB/	.	X X 6/	4dd\	.	4gg#Xt\	.	4B\	-ten-	4dd\	-ten-	4ee\	4gg#X\
=2	=2	=2	=2	=2	=2	=2	=2	=2	=2	=2	=2	=2
8AA/L	.	.	8cc#\L	.	16aa\LL	.	8A\	-tem	8cc#\	-tem	4ee\	16aa\LL
.	.	.	.	.	16gg#X\	.	.	.	.	.	.	16gg\
8AA/	.	.	8cc#\	.	16aa\	.	8A\	fa-	8cc#\	fa-	.	16aa\
.	.	.	.	.	16bb\JJ	.	.	.	.	.	.	16bb\JJ
8BB/	.	X X 6n	8dd\	.	16ggn\LL	.	8B\	-cto-	8dd\	-cto-	4r	16gg\LL
.	.	.	.	.	16bb\	.	.	.	.	.	.	16bb\
8C#/J	.	X 6 5	8ee\J	.	16aa\	.	8c#\	-rem	8ee\	-rem	.	16aa\
.	.	.	.	.	16gg\JJ	.	.	.	.	.	.	16gg\JJ
8D\L	.	.	8a/	.	8ff#\L	.	8d\	Cae-	8ff#\	Cae-	8dd\L	8ff#\L
16B\L	.	X X 6	4dd\	.	16gg\L	.	16B\	-li	16gg\	-li	16ee\L	16gg\L
16G\JJ	.	.	.	.	16ff#\JJ	.	16G\	et	16ff#\	et	16dd\JJ	16ff#\JJ
!LO:TX:t=P:problem=mixed beam	!	!	!	!	!	!	!LO:TX:t=P:problem=mixed beam	!	!	!	!	!
8A\L	.	X X 4	.	.	8.eeT\L	.	(8A\L	ter-	4eeT\	ter-	8.a/L	8.ee\L
.	.	X X 9	.	.	.	.	.	.	.	.	.	.
8AA/J	.	.	8cc#\	.	.	.	8AA/J)	.	.	.	.	.
.	.	.	.	.	16aa\Jk	.	.	.	.	.	16a/Jk	16ee\Jk
=3	=3	=3	=3	=3	=3	=3	=3	=3	=3	=3	=3	=3
.	.	.	8qqcc#/	.	8qqgg/	.	.	.	.	.	.	.
4D\	.	.	4dd\	.	4ff#\	.	8D\	-rae	4dd\	-rae	4f#/	4dd\
.	.	.	.	.	.	.	16D\	vi-	.	.	.	.
.	.	.	.	.	.	.	16E\	-si-	.	.	.	.
4r	.	.	4r	.	4r	.	8F#\	-bi-	4r	.	4r	4r
.	.	.	.	.	.	.	16E\	-li-	.	.	.	.
.	.	.	.	.	.	.	16D\	-um	.	.	.	.
8r	.	.	2r	.	2r	.	8.A\	om-	2r	.	2r	2r
!LO:TX:b:i:t=Solo	!	!	!	!	!	!	!	!	!	!	!	!
16AA/LL	.	.	.	.	.	.	.	.	.	.	.	.
16BB/JJ	.	.	.	.	.	.	16A\	-ni-	.	.	.	.
8C#/L	.	X X 6	.	.	.	.	4A\	-um	.	.	.	.
16BB/L	.	.	.	.	.	.	.	.	.	.	.	.
16AA/JJ	.	.	.	.	.	.	.	.	.	.	.	.
=4	=4	=4	=4	=4	=4	=4	=4	=4	=4	=4	=4	=4
!	!	!	!	!	!	!	!	!	!	!	!LO:TX:a:t=5	!LO:TX:a:t=5
4BB/	.	X X 6	00r	.	00r	.	16G\LL	et	1r	.	00r	00r
.	.	.	.	.	.	.	16F#\	.	.	.	.	.
.	.	.	.	.	.	.	16G\	.	.	.	.	.
.	.	.	.	.	.	.	16A\JJ	.	.	.	.	.
4C#/	.	X 6 5	.	.	.	.	16G\LL	.	.	.	.	.
.	.	.	.	.	.	.	16B\JJ	.	.	.	.	.
.	.	.	.	.	.	.	(16A\LL	in-	.	.	.	.
.	.	.	.	.	.	.	16G\JJ)	.	.	.	.	.
!	!	!	!	!	!	!	!LO:LB:g=original	!	!	!	!	!
8D/L	.	.	.	.	.	.	8F#\	-vi-	.	.	.	.
8C#/	.	.	.	.	.	.	8E\	-si-	.	.	.	.
8D/	.	.	.	.	.	.	8.F#\	-bi-	.	.	.	.
8BB/J	.	X X 6/	.	.	.	.	.	.	.	.	.	.
.	.	.	.	.	.	.	16G#X\	-li-	.	.	.	.
=5	=5	=5	=5	=5	=5	=5	=5	=5	=5	=5	=5	=5
4AA/	.	.	.	.	.	.	4A\	-um	8r	.	.	.
.	.	.	.	.	.	.	.	.	16a\	Et	.	.
.	.	.	.	.	.	.	.	.	16b\	in	.	.
4r	.	.	.	.	.	.	4r	.	8cc#\	u-	.	.
.	.	.	.	.	.	.	.	.	(16b\LL	-num	.	.
.	.	.	.	.	.	.	.	.	16a\JJ)	.	.	.
8r	.	.	.	.	.	.	2r	.	8.ee\	Do-	.	.
16E\LL	.	X X #	.	.	.	.	.	.	.	.	.	.
16F#\JJ	.	.	.	.	.	.	.	.	16ee\	-mi-	.	.
8G#X\L	.	X X 6	.	.	.	.	.	.	4ee\	-num	.	.
16F#\L	.	.	.	.	.	.	.	.	.	.	.	.
16E\JJ	.	.	.	.	.	.	.	.	.	.	.	.
!	!	!	!	!	!	!	!	!	!LO:LB:g=original	!	!	!
=6	=6	=6	=6	=6	=6	=6	=6	=6	=6	=6	=6	=6
4F#\	.	X X 6	.	.	.	.	0r	.	(16dd\LL	Je-	.	.
.	.	.	.	.	.	.	.	.	16cc#\JJ)	.	.	.
.	.	.	.	.	.	.	.	.	(16dd\LL	-sum	.	.
.	.	.	.	.	.	.	.	.	16ee\JJ)	.	.	.
4G#X\	.	X 6 5	.	.	.	.	.	.	16dd\LL	Chri-	.	.
.	.	.	.	.	.	.	.	.	16ff#\JJ	.	.	.
.	.	.	.	.	.	.	.	.	16ee\LL	-stum	.	.
.	.	.	.	.	.	.	.	.	16dd\JJ	.	.	.
4.A\	.	X X 3	.	.	.	.	.	.	8cc#\	Fi-	.	.
.	.	.	.	.	.	.	.	.	16b\	-li-	.	.
.	.	X X 2	.	.	.	.	.	.	16a\	-um	.	.
.	.	.	.	.	.	.	.	.	8b\	De-	.	.
8Gn\	.	X X 4	.	.	.	.	.	.	8cc#\	-i	.	.
=7	=7	=7	=7	=7	=7	=7	=7	=7	=7	=7	=7	=7
4.F#\	.	X X 6	.	.	.	.	.	.	8dd\	u-	.	.
.	.	.	.	.	.	.	.	.	8a\	-ni-	.	.
.	.	.	.	.	.	.	.	.	[4dd\	-ge-	.	.
8B\	.	.	.	.	.	.	.	.	.	.	.	.
8G\L	.	X 6 5	.	.	.	.	.	.	4dd\]	.	.	.
8E\J	.	.	.	.	.	.	.	.	.	.	.	.
!LO:TX:t=P:problem=mixed beam	!	!	!	!	!	!	!	!	!	!	!	!
8A\L	.	.	.	.	.	.	.	.	8.cc#\	.	.	.
8AA/J	.	.	.	.	.	.	.	.	.	.	.	.
.	.	.	.	.	.	.	.	.	16dd\	-ni-	.	.
!LO:LB:g=original	!	!	!	!	!	!	!	!	!	!	!	!
=8	=8	=8	=8	=8	=8	=8	=8	=8	=8	=8	=8	=8
4D\	.	.	2r	.	8r	.	1r	.	4dd\	-tum	1r	1r
.	.	.	.	.	16dd\LL	.	.	.	.	.	.	.
.	.	.	.	.	16ee\JJ	.	.	.	.	.	.	.
4r	.	.	.	.	8ff#\L	.	.	.	4r	.	.	.
.	.	.	.	.	16ee\L	.	.	.	.	.	.	.
.	.	.	.	.	16dd\JJ	.	.	.	.	.	.	.
2r	.	.	8r	.	8.aa\L	.	.	.	8r	.	.	.
.	.	.	16a/LL	.	.	.	.	.	16a\	et	.	.
.	.	.	16b/JJ	.	16aa\Jk	.	.	.	16b\	ex	.	.
.	.	.	8cc#/L	.	4aa\	.	.	.	8cc#\	Pa-	.	.
.	.	.	16b/L	.	.	.	.	.	(16b\LL	-tre	.	.
.	.	.	16a/JJ	.	.	.	.	.	16a\JJ)	.	.	.
=9	=9	=9	=9	=9	=9	=9	=9	=9	=9	=9	=9	=9
2r	.	.	4b\	.	16gg\LL	.	2r	.	(4b\	na-	2r	2r
.	.	.	.	.	16ff#\	.	.	.	.	.	.	.
.	.	.	.	.	16gg\	.	.	.	.	.	.	.
.	.	.	.	.	16aa\JJ	.	.	.	.	.	.	.
.	.	.	4cc#\	.	16gg\LL	.	.	.	4cc#\)	.	.	.
.	.	.	.	.	16bb\	.	.	.	.	.	.	.
.	.	.	.	.	16aa\	.	.	.	.	.	.	.
.	.	.	.	.	16gg\JJ	.	.	.	.	.	.	.
8r	.	.	4.dd\	.	16ff#\LL	.	8r	.	4dd\	-tum	8r	8r
.	.	.	.	.	16ee\	.	.	.	.	.	.	.
16D\LL	.	.	.	.	16ff#\	.	16D\	an-	.	.	16d/LL	16d/LL
16E\JJ	.	.	.	.	16gg\JJ	.	16E\	-te	.	.	16d/JJ	16d/JJ
!	!	!	!	!	!LO:LB:g=original	!	!	!	!	!	!	!
8F#\L	.	X X 6	.	.	16ff#\LL	.	8F#\	om-	4r	.	8d/L	8d/L
.	.	.	.	.	16aa\	.	.	.	.	.	.	.
16E\L	.	.	8dd\	.	16gg\	.	16E\	-ni-	.	.	8d/J	8d/J
16D\JJ	.	.	.	.	16ff#\JJ	.	16D\	-a	.	.	.	.
=10	=10	=10	=10	=10	=10	=10	=10	=10	=10	=10	=10	=10
8.G\L	.	.	8b/L	.	8gg\L	.	8.G\	sae-	8r	.	4d/	4d/
.	.	.	16g/L	.	16b\L	.	.	.	(16b\LL	De-	.	.
16G\Jk	.	.	16a/JJ	.	16ccn\JJ	.	16G\	-cu-	16ccn\JJ)	.	.	.
4G\	.	.	8b/L	.	8dd\L	.	4G\	-la	8dd\	-um	4r	4r
.	.	.	16a/L	.	16cc\L	.	.	.	(16ccn\LL	de	.	.
.	.	.	16g/JJ	.	16b\JJ	.	.	.	16b\JJ)	.	.	.
!	!	!	!LO:LB:g=original	!	!	!	!	!	!	!	!	!
8r	.	.	8.g/L	.	8.ee\L	.	8r	.	4ee\	De-	8r	8r
16E\LL	.	.	.	.	.	.	16E\LL	lu-	.	.	16ee\LL	16ee\LL
16F#\JJ	.	.	16g/Jk	.	16ee\Jk	.	16F#\JJ	.	.	.	16ee\JJ	16ee\JJ
8G\L	.	X X 6	4g/	.	4ee\	.	8G\	-men	4ee\	-o,	8ee\L	8ee\L
16F#\L	.	.	.	.	.	.	16F#\LL	de	.	.	8ee\J	8ee\J
16E\JJ	.	.	.	.	.	.	16E\JJ	.	.	.	.	.
!	!	!	!	!	!	!	!	!	!LO:LB:g=original	!	!	!
=11	=11	=11	=11	=11	=11	=11	=11	=11	=11	=11	=11	=11
8.A\L	.	.	8r	.	8r	.	8.A\	lu-	8r	.	4a/	4ee\
.	.	.	16a/LL	.	16cc#X\LL	.	.	.	(16cc#X\LL	De-	.	.
16A\Jk	.	.	16b/JJ	.	16dd\JJ	.	16A\	-mi-	16dd\J)	.	.	.
4A\	.	.	8cc#/L	.	8ee\L	.	4A\	-ne	8ee\J	.	4r	4r
.	.	.	16b/L	.	16dd\L	.	.	.	16dd\LL	-um	.	.
.	.	.	16a/JJ	.	16cc#\JJ	.	.	.	16cc#\JJ	.	.	.
8r	.	.	8.a#X/L	.	8.ff#\L	.	8r	.	4ff#\	ve-	8r	8r
16F#\LL	.	X X #	.	.	.	.	16F#\LL	de	.	.	16f#/LL	16f#/LL
16G#X\JJ	.	.	16a#/Jk	.	16ff#\Jk	.	16G#X\JJ	.	.	.	16f#/JJ	16f#/JJ
8A#X\L	.	X X 6	4a#/	.	4ff#\	.	8A#X\	De-	4ff#\	-rum	8f#/L	8f#/L
16G#\L	.	.	.	.	.	.	16G#\LL	-o	.	.	8f#/J	8f#/J
16F#\JJ	.	.	.	.	.	.	16F#\JJ	.	.	.	.	.
!	!	!	!	!	!	!	!	!	!	!	!LO:LB:g=original	!LO:LB:g=original
=12	=12	=12	=12	=12	=12	=12	=12	=12	=12	=12	=12	=12
8.B\L	.	.	8r	.	8r	.	4B\	ve-	8r	.	4f#/	4f#/
.	.	.	16b\LL	.	16dd\LL	.	.	.	(16dd\LL	de	.	.
16B\Jk	.	.	16cc#\JJ	.	16ee\JJ	.	.	.	16ee\JJ)	.	.	.
4B\	.	.	8dd\L	.	8ff#\L	.	4B\	-ro	8ff#\	De-	4r	4r
.	.	.	16cc#\L	.	16ee\L	.	.	.	(16ee\LL	-o	.	.
.	.	.	16b\JJ	.	16dd\JJ	.	.	.	16dd\JJ)	.	.	.
!	!	!	!	!	!	!	!LO:LB:g=original	!	!	!	!	!
8r	.	.	8.b\L	.	8.gg\L	.	8r	.	4gg\	ve-	2r	2r
16Gn\LL	.	.	.	.	.	.	16G\LL	ve-	.	.	.	.
16A\JJ	.	.	16b\Jk	.	16gg\Jk	.	16A\J	.	.	.	.	.
8B\L	.	.	4b\	.	4gg\	.	8B\J	.	4gg\	-ro,	.	.
16A\L	.	.	.	.	.	.	16A\LL	-ro,	.	.	.	.
16G\JJ	.	.	.	.	.	.	16G\JJ	.	.	.	.	.
=13	=13	=13	=13	=13	=13	=13	=13	=13	=13	=13	=13	=13
4G\	.	.	4bb\	.	4ddd\	.	8.G\	ge-	8.dd\	Ge-	1r	1r
.	.	.	.	.	.	.	16G\	-ni-	16dd\	-ni-	.	.
8G\L	.	.	8bb\L	.	8ddd\L	.	8G\	-tum	8dd\	-tum	.	.
8F#\J	.	X X 6	8aa\J	.	8ddd\J	.	8F#\	non	8dd\	non	.	.
8G\L	.	.	8bb\L	.	8ddd\L	.	8G\	.	8dd\	.	.	.
8F#\J	.	X X 6	8aa\J	.	8ddd\J	.	8F#\	.	8dd\	.	.	.
.	.	.	8qqaa/	.	8qqddd/	.	.	.	.	.	.	.
4E\	.	X X 6	4gg\	.	4ccc#t\	.	4ET\	fac-	4ee\	fa-	.	.
=14	=14	=14	=14	=14	=14	=14	=14	=14	=14	=14	=14	=14
*	*	*	*	*	*	*	*2\right	*	*2\right	*	*	*
!LO:TX:t=P:problem=mixed beam	!	!	!LO:TX:t=P:problem=mixed beam	!	!LO:TX:t=P:problem=mixed beam	!	!	!	!	!	!	!
16D/LL	.	.	16ff#\LL	.	16ddd\LL	.	2D\	-tum	2ff#\	-ctum	2r	2r
16d\	.	.	16f#/	.	16a/	.	.	.	.	.	.	.
16c#\	.	.	16g/	.	16b/	.	.	.	.	.	.	.
16B\JJ	.	.	16a/JJ	.	16cc#/JJ	.	.	.	.	.	.	.
16A\LL	.	.	16b\LL	.	16dd\LL	.	.	.	.	.	.	.
16G\	.	.	16cc#\	.	16ee\	.	.	.	.	.	.	.
16F#\	.	.	16dd\	.	16ff#\	.	.	.	.	.	.	.
16E\JJ	.	.	16ee\JJ	.	16gg\JJ	.	.	.	.	.	.	.
4D\	.	.	4ff#\	.	4aa\	.	8.d\	con-	8.ff#\	con-	4ff#\	4aa\
.	.	.	.	.	.	.	16d\	-sub-	16ff#\	-sub-	.	.
!LO:LB:g=original	!	!	!	!	!	!	!	!	!	!	!	!
8D/L	.	.	8ff#\L	.	8aa\L	.	8d\	-stan-	8ff#\	-stan-	8ff#\L	8aa\L
8C#/J	.	X X 6	8ee\J	.	8aa\J	.	8c#\	-ti-	8ee\	-ti-	8ee\J	8aa\J
!	!	!	!LO:LB:g=original	!	!	!	!	!	!	!	!	!
=15	=15	=15	=15	=15	=15	=15	=15	=15	=15	=15	=15	=15
8D/L	.	.	8ff#\L	.	8aa\L	.	8d\	-a-	8ff#\	-a-	8ff#\L	8aa\L
8C#/J	.	X X 6	8ee\J	.	8aa\J	.	8c#\	-lem	8ee\	-lem	8ee\J	8aa\J
.	.	.	8qqee/	.	8qqaa/	.	8qqc#/	.	8qqee/	.	.	.
!	!	!	!	!	!LO:LB:g=original	!	!	!	!	!	!	!
4BB/	.	X X 6/	4dd\	.	4gg#Xt\	.	4B\	Pa-	4dd\	Pa-	4ee\	4gg#X\
.	.	.	8qqdd/	.	.	.	.	.	.	.	.	.
*	*	*	*2\right	*	*2\right	*	*	*	*	*	*	*
8AA/L|	.	.	2cc#\	.	2aa\	.	2A\	-tri	2cc#\	-tri,	4ee\	4aa\
8AA/|	.	.	.	.	.	.	.	.	.	.	.	.
8C#/|	.	.	.	.	.	.	.	.	.	.	4r	4r
8E/J|	.	.	.	.	.	.	.	.	.	.	.	.
!	!	!	!	!	!	!	!	!	!LO:LB:g=original	!	!	!
=16	=16	=16	=16	=16	=16	=16	=16	=16	=16	=16	=16	=16
16AA/LL	.	.	4e/	.	16cc#\LL	.	4.A\	per	4.cc#\	per	0r	0r
16GG#X/	.	.	.	.	16b\	.	.	.	.	.	.	.
16AA/	.	.	.	.	16cc#\	.	.	.	.	.	.	.
16BB/JJ	.	.	.	.	16dd\JJ	.	.	.	.	.	.	.
16AA/LL	.	X X 6	2f#/	.	16cc#\LL	.	.	.	.	.	.	.
16C#/	.	.	.	.	16ee\	.	.	.	.	.	.	.
16BB/	.	.	.	.	16dd\	.	8A\	quem	8cc#\	quem	.	.
16AA/JJ	.	.	.	.	16cc#\JJ	.	.	.	.	.	.	.
16BB/LL	.	X X 5	.	.	16dd\LL	.	8.B\	om-	8.dd\	om-	.	.
16AA/	.	.	.	.	16cc#\	.	.	.	.	.	.	.
16BB/	.	.	.	.	16dd\	.	.	.	.	.	.	.
16C#/JJ	.	.	.	.	16ee\JJ	.	16B\	-ni-	16dd\	-ni-	.	.
16BB/LL	.	X X 6	[4g/	.	16dd\LL	.	4B\	-a	4dd\	-a	.	.
16D/	.	.	.	.	16ff#\	.	.	.	.	.	.	.
16C#/	.	.	.	.	16ee\	.	.	.	.	.	.	.
16BB/JJ	.	.	.	.	16dd\JJ	.	.	.	.	.	.	.
=17	=17	=17	=17	=17	=17	=17	=17	=17	=17	=17	=17	=17
16C#/LL	.	X X 5	4g/]	.	16ee\LL	.	4.c#\	fac-	4.ee\	fac-	.	.
16BB/	.	.	.	.	16dd\	.	.	.	.	.	.	.
16C#/	.	.	.	.	16ee\	.	.	.	.	.	.	.
16D/JJ	.	.	.	.	16ff#\JJ	.	.	.	.	.	.	.
16C#/LL	.	X X 6	4a/	.	16ee\LL	.	.	.	.	.	.	.
16E/	.	.	.	.	16gg\	.	.	.	.	.	.	.
16D/	.	.	.	.	16ff#\	.	8c#\	-ta	8ee\	-ta	.	.
16C#/JJ	.	.	.	.	16ee\JJ	.	.	.	.	.	.	.
.	.	.	.	.	.	.	.	.	8qqee/	.	.	.
*2\right	*	*	*	*	*	*	*	*	*	*	*	*
2D\	.	.	16dd\LL	.	16ff#\LL	.	2d\	sunt	2ff#\	sunt,	.	.
.	.	.	16cc#\	.	16ee\	.	.	.	.	.	.	.
.	.	.	16dd\	.	16ff#\	.	.	.	.	.	.	.
.	.	.	16ee\JJ	.	16gg\JJ	.	.	.	.	.	.	.
.	.	.	16dd\LL	.	16ff#\LL	.	.	.	.	.	.	.
.	.	.	16ff#\	.	16aa\	.	.	.	.	.	.	.
.	.	.	16ee\	.	16gg\	.	.	.	.	.	.	.
.	.	.	16dd\JJ	.	16ff#\JJ	.	.	.	.	.	.	.
!	!	!	!	!	!	!	!LO:LB:g=original	!	!	!	!	!
=18	=18	=18	=18	=18	=18	=18	=18	=18	=18	=18	=18	=18
8r	.	.	4cc#\	.	4ee\	.	8r	.	8r	.	8r	8r
16A\LL	.	.	.	.	.	.	(16A\LL	qui	(16cc#\LL	qui	16a/LL	16ee\LL
16B\JJ	.	.	.	.	.	.	16B\JJ)	.	16dd\JJ)	.	16a/JJ	16ee\JJ
8c#\L	.	X X 6	4r	.	4r	.	8c#\	prop-	8ee\	prop-	8a/L	8ee\L
16B\L	.	.	.	.	.	.	16B\	-ter	16dd\	-ter	8a/J	8ee\J
16A\JJ	.	.	.	.	.	.	16A\	nos	16cc#\	nos	.	.
8.d\L	.	.	8r	.	8r	.	8.d\	ho-	8.ff#\	ho-	4dd\	4ff#\
.	.	.	16dd\LL	.	16ff#\LL	.	.	.	.	.	.	.
16d\Jk	.	.	16ee\JJ	.	16gg\JJ	.	16d\	-mi-	16ff#\	-mi-	.	.
4d\	.	.	8ff#\L	.	8aa\L	.	4d\	-nes	4ff#\	-nes,	4r	4r
.	.	.	16ee\L	.	16gg\L	.	.	.	.	.	.	.
.	.	.	16dd\JJ	.	16ff#\JJ	.	.	.	.	.	.	.
=19	=19	=19	=19	=19	=19	=19	=19	=19	=19	=19	=19	=19
8r	.	.	8.cc#\L	.	8.ee\L	.	8r	.	8r	.	8r	8r
16A\LL	.	.	.	.	.	.	(16A\LL	et	(16cc#\LL	et	16a/LL	16ee\LL
16B\JJ	.	.	16cc#\Jk	.	16ee\Jk	.	16B\JJ)	.	16dd\JJ)	.	16a/JJ	16ee\JJ
8c#\L	.	X X 6	4cc#\	.	4ee\	.	8c#\	prop-	8ee\	prop-	8a/L	8ee\L
16B\L	.	.	.	.	.	.	(16B\LL	-ter	(16dd\LL	-ter	8a/J	8ee\J
16A\JJ	.	.	.	.	.	.	16A\JJ)	.	16cc#\JJ)	.	.	.
4d\	.	.	8r	.	8r	.	4d\	nos-	4ff#\	nos-	4dd\	4ff#\
.	.	.	16dd\LL	.	16ff#\LL	.	.	.	.	.	.	.
.	.	.	16ee\JJ	.	16gg\JJ	.	.	.	.	.	.	.
4D/	.	.	8ff#\L	.	8aa\L	.	8d\	-tram	8ff#\	-tram	4r	4r
.	.	.	16ee\L	.	16gg\L	.	8d\	sa-	8ff#\	sa-	.	.
.	.	.	16dd\JJ	.	16ff#\JJ	.	.	.	.	.	.	.
!LO:LB:g=original	!	!	!	!	!	!	!	!	!	!	!	!
=20	=20	=20	=20	=20	=20	=20	=20	=20	=20	=20	=20	=20
4A\	.	.	8.cc#\L	.	8.ee\L	.	4A\	-lu-	4ee\	-lu-	2r	2r
.	.	.	16cc#\Jk	.	16ee\Jk	.	.	.	.	.	.	.
4AA/	.	.	4cc#\	.	4ee\	.	4A\	-tem	4ee\	-tem	.	.
!LO:TX:t=P:problem=mixed beam	!	!	!	!	!	!	!	!	!	!	!	!
!	!	!	!LO:LB:g=original	!	!LO:LB:g=original	!	!	!	!	!	!	!
8D/L	.	.	16dd\LL	.	16ff#\LL	.	8D\L	des-	8ff#\L	des-	4.ff#\	4.ff#\
.	.	.	16cc#\	.	16ee\	.	.	.	.	.	.	.
8C#/	.	.	16dd\	.	16ff#\	.	8C#\	.	8ee\	.	.	.
.	.	.	16ee\JJ	.	16gg\JJ	.	.	.	.	.	.	.
8D/	.	.	16dd\LL	.	16ff#\LL	.	8D\	.	8ff#\	.	.	.
.	.	.	16ff#\	.	16aa\	.	.	.	.	.	.	.
8B\J	.	X 6 5	16ee\	.	16gg\	.	8B\J	.	8dd\J	.	8gg\	8gg\
.	.	.	16dd\JJ	.	16ff#\JJ	.	.	.	.	.	.	.
=21	=21	=21	=21	=21	=21	=21	=21	=21	=21	=21	=21	=21
!LO:TX:t=P:problem=mixed beam	!	!	!	!	!	!	!LO:TX:t=P:problem=mixed beam	!	!	!	!	!
8C#/L	.	.	16cc#\LL	.	16ee\LL	.	8C#/L	.	8ee\L	.	4.ee\	4.ee\
.	.	.	16b\	.	16dd\	.	.	.	.	.	.	.
8BB/	.	.	16cc#\	.	16ee\	.	8BB/	.	8dd\	.	.	.
.	.	.	16dd\JJ	.	16ff#\JJ	.	.	.	.	.	.	.
8C#/	.	.	16cc#\LL	.	16ee\LL	.	8C#/	.	8ee\	.	.	.
.	.	.	16ee\	.	16gg\	.	.	.	.	.	.	.
8A\J	.	X 6 5	16dd\	.	16ff#\	.	8A\J	.	8cc#\J	.	8ff#\	8ff#\
.	.	.	16cc#\JJ	.	16ee\JJ	.	.	.	.	.	.	.
!	!	!	!	!	!	!	!	!	!LO:LB:g=original	!	!	!
!LO:TX:t=P:problem=mixed beam	!	!	!	!	!	!	!LO:TX:t=P:problem=mixed beam	!	!	!	!	!
8BB/L	.	.	16b\LL	.	16dd\LL	.	8BB/L	.	8dd\L	.	4.dd\	4.dd\
.	.	.	16a\	.	16cc#\	.	.	.	.	.	.	.
8AA/	.	.	16b\	.	16dd\	.	8AA/	.	8cc#\	.	.	.
.	.	.	16cc#\JJ	.	16ee\JJ	.	.	.	.	.	.	.
8BB/	.	.	16b\LL	.	16dd\LL	.	8BB/	.	8dd\	.	.	.
.	.	.	16dd\	.	16ff#\	.	.	.	.	.	.	.
8G\J	.	X 6 5	16cc#\	.	16ee\	.	8G\J	.	8b\J	.	8ee\	8ee\
.	.	.	16b\JJ	.	16dd\JJ	.	.	.	.	.	.	.
=22	=22	=22	=22	=22	=22	=22	=22	=22	=22	=22	=22	=22
!LO:TX:t=P:problem=mixed beam	!	!	!	!	!	!	!LO:TX:t=P:problem=mixed beam	!	!	!	!	!
8AA/L	.	.	16a/LL	.	16cc#\LL	.	8AA/L	.	8cc#\L	.	4a/	4a/
.	.	.	16g/	.	16b\	.	.	.	.	.	.	.
8GG/	.	.	16a/	.	16cc#\	.	8GG/	.	8b\	.	.	.
.	.	.	16b/JJ	.	16dd\JJ	.	.	.	.	.	.	.
8AA/	.	.	16a/LL	.	16cc#\LL	.	8AA/	.	8cc#\	.	4r	4r
.	.	.	16cc#/	.	16ee\	.	.	.	.	.	.	.
8F#\J	.	X 6 5	16b/	.	16dd\	.	8F#\J	.	8a\J	.	.	.
.	.	.	16a/JJ	.	16cc#\JJ	.	.	.	.	.	.	.
!	!	!	!	!	!	!	!LO:LB:g=original	!	!	!	!LO:LB:g=original	!LO:LB:g=original
8G\L	.	.	16g/LL	.	16b\LL	.	8G\L	.	8b\L	.	8r	8r
.	.	.	16f#/	.	16a\	.	.	.	.	.	.	.
8F#\	.	.	16g/	.	16b\	.	8F#\	.	8a\	.	16d/LL	16d/LL
.	.	.	16a/JJ	.	16cc#\JJ	.	.	.	.	.	16d/JJ	16d/JJ
8G\	.	.	16g/LL	.	16b\LL	.	8G\	.	8b\	.	8d/L	8d/L
.	.	.	16b/	.	16dd\	.	.	.	.	.	.	.
8E\J	.	X 6 5	16a/	.	16cc#\	.	8E\J	.	8g\J	.	8d/J	8d/J
.	.	.	16g/JJ	.	16b\JJ	.	.	.	.	.	.	.
=23	=23	=23	=23	=23	=23	=23	=23	=23	=23	=23	=23	=23
8F#\L	.	.	16f#/LL	.	16a/LL	.	8F#\L	.	8a\L	.	4d/	4d/
.	.	.	16e/	.	16g/	.	.	.	.	.	.	.
8E\	.	.	16f#/	.	16a/	.	8E\	.	8g\	.	.	.
.	.	.	16g/JJ	.	16b/JJ	.	.	.	.	.	.	.
8F#\	.	.	16f#/LL	.	16a/LL	.	8F#\	.	8a\	.	4r	4r
.	.	.	16a/	.	16cc#/	.	.	.	.	.	.	.
8D\J	.	X 6 5	16g/	.	16b/	.	8D\J	.	8f#\J	.	.	.
.	.	.	16f#/JJ	.	16a/JJ	.	.	.	.	.	.	.
!	!	!	!LO:LB:g=original	!	!	!	!	!	!	!	!	!
8E\L	.	.	16e/LL	.	16g/LL	.	8E\L	.	8g/L	.	2r	2r
.	.	.	16d/	.	16f#/	.	.	.	.	.	.	.
8D\	.	.	16e/	.	16g/	.	8D\	.	8f#/	.	.	.
.	.	.	16f#/JJ	.	16a/JJ	.	.	.	.	.	.	.
8E\	.	.	16e/LL	.	16g/LL	.	(8E\	-cen-	8g/	.	.	.
.	.	.	16g/	.	16b/	.	.	.	.	.	.	.
8C#\J	.	X 6 5	16f#/	.	16a/	.	8C#\J)	.	8e/J	.	.	.
.	.	.	16e/JJ	.	16g/JJ	.	.	.	.	.	.	.
!	!	!	!	!	!LO:LB:g=original	!	!	!	!	!	!	!
=24	=24	=24	=24	=24	=24	=24	=24	=24	=24	=24	=24	=24
*	*	*	*	*	*	*	*	*	*	*	*2\right	*
4D\	.	.	4d/	.	16f#/LL	.	4D\	-dit	(8f#\L	-cen-	[2dd\	4.dd\
.	.	.	.	.	16a/	.	.	.	.	.	.	.
.	.	.	.	.	16b/	.	.	.	8a\J)	.	.	.
.	.	.	.	.	16cc#/JJ	.	.	.	.	.	.	.
8r	.	.	8r	.	8dd\L	.	8r	.	8dd,\	-dit	.	.
8B\	.	X X 6	8dd\	.	8gg\J	.	8B\	de	8gg\	de	.	8gg\
4A\	.	X 6 4	4dd\	.	4ff#\	.	(4A\	Cae-	(4ff#\	cae-	4dd\]	4ff#\
4AA/	.	X 5 3	4cc#t\	.	4eeT\	.	4AA/)	.	4eeT\)	.	4a/	4ee\
=25	=25	=25	=25	=25	=25	=25	=25	=25	=25	=25	=25	=25
4D\|	.	.	4dd\|	.	4dd\|	.	4D\	-lis	4dd\	-lis	4f#/|	4dd\|
4A\|	.	.	4cc#\|	.	4ee\|	.	4A\	des-	4ee\	de	4a/|	4ee\|
4d\|	.	.	4a/|	.	4ff#\|	.	4d\	-Cen-	4ff#\	cae-	4dd\|	4ff#\|
4D\|	.	.	4a/|	.	4ff#\|	.	4D\	-dit.	4ff#\	-lis.	4dd\|	4ff#\|
=26	=26	=26	=26	=26	=26	=26	=26	=26	=26	=26	=26	=26
1r	.	.	1r;	.	1r	.	1r;	.	1r;	.	1r;	1r;
!LO:LB:g=original	!	!	!LO:PB:g=original	!	!LO:LB:g=original	!	!LO:LB:g=original	!	!LO:LB:g=original	!	!	!
=27||	=27||	=27||	=27||	=27||	=27||	=27||	=27||	=27||	=27||	=27||	=27||	=27||
*k[f#]	*	*	*k[f#]	*	*k[f#]	*	*k[f#]	*	*k[f#]	*	*k[f#]	*k[f#]
*G:	*	*	*G:	*	*G:	*	*G:	*	*G:	*	*G:	*G:
!LO:TX:b:i:t=Et incarnatus.	!	!	!LO:TX:b:i:t=Et incarnatus	!	!LO:TX:b:i:t=Et incarnatus	!	!	!	!	!	!	!
!LO:TX:a:i:t=Adag&colon; Tut&colon;	!	!	!LO:TX:a:i:t=Adagio	!	!LO:TX:a:i:t=Adagio	!	!LO:TX:a:i:t=Adagio.	!	!LO:TX:a:i:t=Adagio	!	!LO:TX:b:i:t=Et incarnatus.  \n \net Crucifixus.   } Tacet.	!LO:TX:b:i:t=Et incarnatus et Crucifixus Tacet.
4G\	.	.	4b\	.	4dd\	.	1r	.	1r	.	1ryy	1ryy
8G\L	.	.	8b\L	.	8dd\L	.	.	.	.	.	.	.
8G\J	.	.	8b\J	.	8dd\J	.	.	.	.	.	.	.
4F#\	.	X 7 5	4cc\	.	4ee\	.	.	.	.	.	.	.
[4G\	.	X 5 3	4b\	.	4dd\	.	.	.	.	.	.	.
=28	=28	=28	=28	=28	=28	=28	=28	=28	=28	=28	=28	=28
.	.	.	8qqb/	.	8qqdd/	.	.	.	.	.	.	.
4G\]	.	X 4 2	2aT/	.	2ccT\	.	2r	.	2r	.	1ryy	1ryy
4F#\	.	X 6 5	.	.	.	.	.	.	.	.	.	.
2G\	.	.	4g/	.	4b\	.	4B\	Et	4dd\	Et	.	.
.	.	.	4r	.	4r	.	8B\	in-	8dd\	in-	.	.
.	.	.	.	.	.	.	8B\	-car-	8dd\	-car-	.	.
=29	=29	=2	=29	=29	=29	=29	=29	=29	=29	=29	=29	=29
4F#\	.	X 7 5	1r	.	1r	.	(4c\	-na-	(4ee\	-na-	1ryy	1ryy
.	.	X 5 3	.	.	.	.	.	.	.	.	.	.
2G\	.	X 4 2	.	.	.	.	4B\)	.	4dd\)	.	.	.
.	.	.	.	.	.	.	4.AT\	.	4.ccT\	.	.	.
4F#\	.	X 6 5	.	.	.	.	.	.	.	.	.	.
.	.	.	.	.	.	.	8A\	-tus	8cc\	-tus	.	.
=30	=30	=30	=30	=30	=30	=30	=30	=30	=30	=30	=30	=30
!LO:TX:t=P:problem=mixed beam	!	!	!	!	!	!	!	!	!	!	!	!
8G\L	.	X X 9	2r	.	2r	.	8G\	est	8b,\	est	1ryy	1ryy
8GG/	.	.	.	.	.	.	8G\	de	8b\	de	.	.
8BB/	.	X X 6	.	.	.	.	16G\	Spi-	16b\	Spi-	.	.
.	.	.	.	.	.	.	16G\	-ri-	16b\	-ri-	.	.
8GG/J	.	.	.	.	.	.	8G\	-tu	8b\	-tu	.	.
4D\	.	.	8r	.	8r	.	4F#\	San-	4a\	San-	.	.
.	.	.	16ff#\LL	.	16aa\LL	.	.	.	.	.	.	.
.	.	.	16gg\JJ	.	16bb\JJ	.	.	.	.	.	.	.
4DD/	.	X X 7	(16aa\LL	.	(16ccc\LL	.	4F#\	-cto	4a\	-cto,	.	.
.	.	.	16gg\)	.	16bb\)	.	.	.	.	.	.	.
.	.	.	(16gg\	.	(16bb\	.	.	.	.	.	.	.
.	.	.	16ff#\JJ)	.	16aa\JJ)	.	.	.	.	.	.	.
=31	=31	=31	=31	=31	=31	=31	=31	=31	=31	=31	=31	=31
.	.	.	8qqff#/	.	8qqaa/	.	.	.	.	.	.	.
!LO:TX:t=P:problem=mixed beam	!	!	!	!	!	!	!	!	!	!	!	!
8G\L	.	.	4gg\	.	4bb\	.	8r	.	8r	.	1ryy	1ryy
8GG/	.	.	.	.	.	.	16G\	ex	16b\	ex	.	.
.	.	.	.	.	.	.	16G\	Ma-	16b\	Ma-	.	.
8BB/	.	X X 6	4r	.	4r	.	8G\	-ri-	8b\	-ri-	.	.
8GG/J	.	.	.	.	.	.	8G\	-a	8b\	-a	.	.
4.D/	.	X X 7	8r	.	8r	.	8.F#\	Vir-	8.a\	Vir-	.	.
.	.	.	16f#/LL	.	16a/LL	.	.	.	.	.	.	.
.	.	.	16g/JJ	.	16b/JJ	.	16F#\	-gi-	16a\	-gi-	.	.
.	.	.	(16a/LL	.	(16cc\LL	.	4F#\	-ne	4a\	-ne,	.	.
.	.	.	16g/)	.	16b\)	.	.	.	.	.	.	.
8C/	.	X X 2	(16g/	.	(16b\	.	.	.	.	.	.	.
.	.	.	16f#/JJ)	.	16a\JJ)	.	.	.	.	.	.	.
=32	=32	=32	=32	=32	=32	=32	=32	=32	=32	=32	=32	=32
4.BB/	.	X X 6	4g/|	.	4dd\	.	8r	.	8r	.	1ryy	1ryy
.	.	.	.	.	.	.	8G\	et	8b\	et	.	.
.	.	.	4r	.	4r	.	8G\	ho-	8b\	ho-	.	.
16AA/LL	.	.	.	.	.	.	16A\LL	-mo	(16cc\LL	-mo	.	.
16GG/JJ	.	.	.	.	.	.	16B\JJ	.	16dd\JJ)	.	.	.
!	!	!	!	!	!	!	!	!	!LO:TX:t=P:problem=mixed beam	!	!	!
!	!	!	!	!	!	!	!LO:LB:g=original	!	!	!	!	!
4C/	.	X X 3	8g/L	.	8ee\L	.	4c\	fac-	(8ee\L	fa-	.	.
.	.	X X 4	8a/	.	8ff#\J	.	.	.	8f#/	.	.	.
8BB/L	.	X X 6	8d/	.	[4gg\	.	8B\L	.	8g/	.	.	.
8C/J	.	X 6 5	8e/J	.	.	.	8c\J	.	8a/J)	.	.	.
!	!	!	!	!	!	!	!	!	!LO:LB:g=original	!	!	!
=33	=33	=33	=33	=33	=33	=33	=33	=33	=33	=33	=33	=33
4D/	.	X 6 4	4.d/	.	4gg\]	.	4.d\	.	(4b\	.	1ryy	1ryy
4DD/	.	X 5 3	.	.	4ff#t\	.	.	.	8.a\)T	.	.	.
.	.	.	8d/	.	.	.	8D/	-tus	.	.	.	.
.	.	.	.	.	.	.	.	.	16g\	-tus	.	.
4GG/	.	.	8d/L	.	4gg\	.	4G\	est	4g\	est,	.	.
.	.	.	8b/J	.	.	.	.	.	.	.	.	.
!	!	!	!LO:TX:t=P:problem=mixed beam	!	!	!	!	!	!	!	!	!
4BB/	.	X X 6	8g/L	.	4dd\	.	4BB/	et	4g\	de	.	.
.	.	.	[8dd\J	.	.	.	.	.	.	.	.	.
!	!	!	!LO:LB:g=original	!	!LO:LB:g=original	!	!	!	!	!	!	!
=34	=34	=34	=34	=34	=34	=34	=34	=34	=34	=34	=34	=34
4C/	.	.	8dd\L]	.	4ee\	.	4C/	ho-	4g\	ho-	1ryy	1ryy
.	.	.	8cc\J	.	.	.	.	.	.	.	.	.
*	*	*reverse	*	*	*	*	*	*	*	*	*	*
4GG/	.	X X 7n	8b\L	.	4ffn\	.	4G\	-mo	4g\	-mo	.	.
*	*	*Xreverse	*	*	*	*	*	*	*	*	*	*
.	.	.	[8dd\J	.	.	.	.	.	.	.	.	.
2CC/	.	.	8dd\L]	.	2ee\	.	4.C/	fac-	4.g\	fac-	.	.
.	.	.	16cc\L	.	.	.	.	.	.	.	.	.
.	.	.	16b\JJ	.	.	.	.	.	.	.	.	.
.	.	.	8.cc\L	.	.	.	.	.	.	.	.	.
.	.	.	.	.	.	.	8C/	-tus	8g\	-tus	.	.
.	.	.	16cc\Jk	.	.	.	.	.	.	.	.	.
=35	=35	=35	=35	=35	=35	=35	=35	=35	=35	=35	=35	=35
1GG	.	.	1b	.	1dd	.	1GG	est.	1g	est.	1ryy	1ryy
!LO:LB:g=original	!	!	!	!	!	!	!	!	!LO:TX:b:i:t=Crucifixus Tacet.	!	!	!
=36||	=36||	=36||	=36||	=36||	=36||	=36||	=36||	=36||	=36||	=36||	=36||	=36||
*k[b-e-]	*	*	*k[b-e-]	*	*k[b-e-]	*	*k[b-e-]	*	*k[b-e-]	*	*k[b-e-]	*k[b-e-]
*g:	*	*	*g:	*	*g:	*	*g:	*	*g:	*	*g:	*g:
!LO:TX:a:i:t=Grave Solo et pian&colon;	!	!	!	!	!	!	!	!	!	!	!	!
!LO:TX:b:i:t=Crucifixus.	!	!	!LO:TX:b:i:t=Crucifixus.	!	!LO:TX:a:i:t=Grave	!	!	!	!	!	!	!
!LO:TX:t=P:problem=mixed beam	!	!	!LO:TX:a:i:t=Grave et semp&colon;	!	!LO:TX:b:i:t=Crucifixus.	!	!LO:TX:a:i:t=Grave Solo.	!	!	!	!	!
8G\L	.	.	8r	.	8r	.	4.G\	Cru-	1ryy	.	1ryy	1ryy
!	!	!	!	!	!	!LO:DY:a:rj:t=p&colon;	!	!	!	!	!	!
8GG/J	.	.	8gg\L	.	8bb-\L	p	.	.	.	.	.	.
!LO:TX:a:t=P:problem=w źródle, w tym i w kolejnych taktach, brak klamry kwadratowej przy sekstoli	!	!	!	!	!	!	!	!	!	!	!	!
24r	.	.	8gg\	.	8bb-\	.	.	.	.	.	.	.
24G\LL	.	.	.	.	.	.	.	.	.	.	.	.
24A\	.	.	.	.	.	.	.	.	.	.	.	.
24B-\	.	.	8gg\J	.	8bb-\J	.	8G\	-ci-	.	.	.	.
24A\	.	.	.	.	.	.	.	.	.	.	.	.
24G\JJ	.	.	.	.	.	.	.	.	.	.	.	.
!LO:TX:t=P:problem=mixed beam	!	!	!	!	!	!	!	!	!	!	!	!
8d\L	.	X X #	8r	.	8r	.	4d\	-fi-	.	.	.	.
!	!	!	!	!LO:DY:b:t=p&colon;	!	!	!	!	!	!	!	!
8D/J	.	.	8ff#X\L	p	8aa\L	.	.	.	.	.	.	.
24r	.	.	8ff#\	.	8aa\	.	4D/	-xus	.	.	.	.
24D\LL	.	.	.	.	.	.	.	.	.	.	.	.
24En\	.	.	.	.	.	.	.	.	.	.	.	.
24F#X\	.	.	8ff#\J	.	8aa\J	.	.	.	.	.	.	.
24E\	.	.	.	.	.	.	.	.	.	.	.	.
24D\JJ	.	.	.	.	.	.	.	.	.	.	.	.
=37	=37	=37	=37	=37	=37	=37	=37	=37	=37	=37	=37	=37
!LO:TX:t=P:problem=mixed beam	!	!	!	!	!	!	!	!	!	!	!	!
8G\L	.	.	8r	.	8r	.	8.GG/	e-	1ryy	.	1ryy	1ryy
8GG/J	.	.	8gg\L	.	8bb-\L	.	.	.	.	.	.	.
.	.	.	.	.	.	.	16AA/	-ti-	.	.	.	.
24r	.	.	8gg\	.	8bb-\	.	8.BB-/	-am	.	.	.	.
24GG/LL	.	.	.	.	.	.	.	.	.	.	.	.
24AA/	.	.	.	.	.	.	.	.	.	.	.	.
24BB-/	.	.	8gg\J	.	8bb-\J	.	.	.	.	.	.	.
24AA/	.	.	.	.	.	.	.	.	.	.	.	.
.	.	.	.	.	.	.	16C/	pro	.	.	.	.
24GG/JJ	.	.	.	.	.	.	.	.	.	.	.	.
.	.	.	8qqgg/	.	8qqbb-/	.	.	.	.	.	.	.
2D;\	.	X X #	2ff#X;\	.	2aa;\	.	4D/	no-	.	.	.	.
.	.	.	.	.	.	.	4DD;/	-bis	.	.	.	.
=38	=38	=38	=38	=38	=38	=38	=38	=38	=38	=38	=38	=38
!LO:TX:t=P:problem=mixed beam	!	!	!	!	!	!	!	!	!	!	!	!
8B-\L	.	.	8r	.	8r	.	4.B-\	Cru-	1ryy	.	1ryy	1ryy
8BB-/J	.	.	8bb-\L	.	8ddd\L	.	.	.	.	.	.	.
24r	.	.	8bb-\	.	8ddd\	.	.	.	.	.	.	.
24B-\LL	.	.	.	.	.	.	.	.	.	.	.	.
24c\	.	.	.	.	.	.	.	.	.	.	.	.
24d\	.	.	8bb-\J	.	8ddd\J	.	8B-\	-ci-	.	.	.	.
24c\	.	.	.	.	.	.	.	.	.	.	.	.
24B-\JJ	.	.	.	.	.	.	.	.	.	.	.	.
8f\L	.	.	8r	.	8r	.	4f\	-fi-	.	.	.	.
8F\J	.	.	8aa\L	.	8ccc\L	.	.	.	.	.	.	.
24r	.	.	8aa\	.	8ccc\	.	4F\	-xus	.	.	.	.
24F\LL	.	.	.	.	.	.	.	.	.	.	.	.
24G\	.	.	.	.	.	.	.	.	.	.	.	.
24A\	.	.	8aa\J	.	8ccc\J	.	.	.	.	.	.	.
24G\	.	.	.	.	.	.	.	.	.	.	.	.
24F\JJ	.	.	.	.	.	.	.	.	.	.	.	.
!	!	!	!	!	!	!	!LO:LB:g=original	!	!	!	!	!
=39	=39	=39	=39	=39	=39	=39	=39	=39	=39	=39	=39	=39
!LO:TX:t=P:problem=mixed beam	!	!	!	!	!	!	!	!	!	!	!	!
8B-\L	.	.	8r	.	8r	.	8.BB-/	e-	1ryy	.	1ryy	1ryy
8BB-\J	.	.	8bb-\L	.	8ddd\L	.	.	.	.	.	.	.
.	.	.	.	.	.	.	16C/	-ti-	.	.	.	.
24r	.	.	8bb-\	.	8ddd\	.	8.D\	-am	.	.	.	.
24BB-/LL	.	.	.	.	.	.	.	.	.	.	.	.
24C/	.	.	.	.	.	.	.	.	.	.	.	.
24D/	.	.	8bb-\J	.	8ddd\J	.	.	.	.	.	.	.
24C/	.	.	.	.	.	.	.	.	.	.	.	.
.	.	.	.	.	.	.	16E-\	pro	.	.	.	.
24BB-/JJ	.	.	.	.	.	.	.	.	.	.	.	.
.	.	.	8qqbb-/	.	8qqddd/	.	.	.	.	.	.	.
2F;\	.	.	2aa;<\	.	2ccc;\	.	4F\	no-	.	.	.	.
.	.	.	.	.	.	.	4FF;/	-bis	.	.	.	.
=40	=40	=40	=40	=40	=40	=40	=40	=40	=40	=40	=40	=40
!LO:TX:t=P:problem=mixed beam	!	!	!	!	!	!	!	!	!	!	!	!
8D\L	.	X X 6	8r	.	8r	.	2D\	sub	1ryy	.	1ryy	1ryy
8DD/J	.	.	8b-\L	.	8ff\L	.	.	.	.	.	.	.
24r	.	.	8b-\	.	8ff\	.	.	.	.	.	.	.
24D/LL	.	.	.	.	.	.	.	.	.	.	.	.
24C/	.	.	.	.	.	.	.	.	.	.	.	.
24BB-/	.	.	8b-\J	.	8ff\J	.	.	.	.	.	.	.
24C/	.	.	.	.	.	.	.	.	.	.	.	.
24D/JJ	.	.	.	.	.	.	.	.	.	.	.	.
!LO:LB:g=original	!	!	!LO:LB:g=original	!	!	!	!	!	!	!	!	!
!LO:TX:t=P:problem=mixed beam	!	!	!	!	!	!	!	!	!	!	!	!
8E-\L	.	.	8r	.	8r	.	8.E-\	Pon-	.	.	.	.
8EE-/J	.	.	8b-\L	.	8gg\L	.	.	.	.	.	.	.
.	.	.	.	.	.	.	16E-\	-ti-	.	.	.	.
24r	.	.	8b-\	.	8gg\	.	4E-\	-o	.	.	.	.
24E-\LL	.	.	.	.	.	.	.	.	.	.	.	.
24F\	.	.	.	.	.	.	.	.	.	.	.	.
24G\	.	.	8b-\J	.	8gg\J	.	.	.	.	.	.	.
24F\	.	.	.	.	.	.	.	.	.	.	.	.
24E-\JJ	.	.	.	.	.	.	.	.	.	.	.	.
!	!	!	!	!	!LO:PB:g=original	!	!	!	!	!	!	!
=41	=41	=41	=41	=41	=41	=41	=41	=41	=41	=41	=41	=41
*	*	*	*	*	*	*	*	*ij	*	*	*	*
!LO:TX:t=P:problem=mixed beam	!	!	!	!	!	!	!	!	!	!	!	!
8F\L	.	X X 6	8r	.	8r	.	8.F\	Pon-	1ryy	.	1ryy	1ryy
8FF/J	.	.	8dd\L	.	8aa\L	.	.	.	.	.	.	.
.	.	.	.	.	.	.	16F\	-ti-	.	.	.	.
24r	.	.	8dd\	.	8aa\	.	8F\	-o	.	.	.	.
*	*	*	*	*	*	*	*	*Xij	*	*	*	*
24F\LL	.	.	.	.	.	.	.	.	.	.	.	.
24E-\	.	.	.	.	.	.	.	.	.	.	.	.
24D\	.	.	8dd\J	.	8aa\J	.	8F\	pi-	.	.	.	.
24E-\	.	.	.	.	.	.	.	.	.	.	.	.
24F\JJ	.	.	.	.	.	.	.	.	.	.	.	.
!LO:TX:t=P:problem=mixed beam	!	!	!	!	!	!	!	!	!	!	!	!
8G\L	.	.	8r	.	8r	.	4G\	-la-	.	.	.	.
8GG/J	.	.	8dd\L	.	8bb-\L	.	.	.	.	.	.	.
*Xtuplet	*	*	*	*	*	*	*	*	*	*	*	*
24r	.	.	8dd\	.	8bb-\	.	4G\	-to	.	.	.	.
24G\LL	.	.	.	.	.	.	.	.	.	.	.	.
24A\	.	.	.	.	.	.	.	.	.	.	.	.
24B-\	.	.	8dd\J	.	8bb-\J	.	.	.	.	.	.	.
24A\	.	.	.	.	.	.	.	.	.	.	.	.
24G\JJ	.	.	.	.	.	.	.	.	.	.	.	.
=42	=42	=42	=42	=42	=42	=42	=42	=42	=42	=42	=42	=42
!LO:TX:t=P:problem=mixed beam	!	!	!	!	!	!	!	!	!	!	!	!
8A\L	.	X X 6	8r	.	8r	.	4.A\	paſ-	1ryy	.	1ryy	1ryy
8AA/J	.	.	8ff\L	.	8ccc\L	.	.	.	.	.	.	.
24r	.	.	8ff\	.	8ccc\	.	.	.	.	.	.	.
24A\LL	.	.	.	.	.	.	.	.	.	.	.	.
24G\	.	.	.	.	.	.	.	.	.	.	.	.
24F\	.	.	8ff\J	.	8ccc\J	.	8A\	-sus	.	.	.	.
24G\	.	.	.	.	.	.	.	.	.	.	.	.
24A\JJ	.	.	.	.	.	.	.	.	.	.	.	.
!LO:TX:t=P:problem=mixed beam	!	!	!	!	!	!	!	!	!	!	!	!
8B-\L	.	.	8r	.	8r	.	4B-\	et	.	.	.	.
8BB-/J	.	.	8dd\L	.	8ff\L	.	.	.	.	.	.	.
*tuplet	*	*	*	*	*	*	*	*	*	*	*	*
24r	.	.	8b-\	.	8gg\	.	4E-\	se-	.	.	.	.
24E-\LL	.	.	.	.	.	.	.	.	.	.	.	.
24F\	.	.	.	.	.	.	.	.	.	.	.	.
24G\	.	.	8b-\J	.	8gg\J	.	.	.	.	.	.	.
24F\	.	.	.	.	.	.	.	.	.	.	.	.
24E-\JJ	.	.	.	.	.	.	.	.	.	.	.	.
=43	=43	=43	=43	=43	=43	=43	=43	=43	=43	=43	=43	=43
!LO:TX:t=P:problem=mixed beam	!	!	!	!	!	!	!	!	!	!	!	!
8F\L	.	X 6 4	8b-\L	.	8dd\L	.	4.FT\	-pul-	1ryy	.	1ryy	1ryy
8F\	.	.	8b-\J	.	8dd\J	.	.	.	.	.	.	.
8FF/	.	X 7 3	16a\LL|	.	16cc\LL|	.	.	.	.	.	.	.
.	.	.	16at\	.	16ccT\	.	.	.	.	.	.	.
8FF/J	.	.	(16b-\	.	(16dd\	.	8F\	-tus	.	.	.	.
.	.	.	16cc\JJ)	.	16ee-\JJ)	.	.	.	.	.	.	.
!LO:TX:t=P:problem=mixed beam	!	!	!	!	!	!	!	!	!	!	!	!
8B-\L	.	.	8b-/L	.	8dd\L	.	4BB-/	est.	.	.	.	.
8BB-/J	.	.	8f/	.	8dd\	.	.	.	.	.	.	.
24r	.	.	8f/	.	8dd\	.	4r	.	.	.	.	.
24B-\LL	.	.	.	.	.	.	.	.	.	.	.	.
24c\	.	.	.	.	.	.	.	.	.	.	.	.
24d\	.	.	8f/J	.	8dd\J	.	.	.	.	.	.	.
24c\	.	.	.	.	.	.	.	.	.	.	.	.
24B-\JJ	.	.	.	.	.	.	.	.	.	.	.	.
=44	=44	=44	=44	=44	=44	=44	=44	=44	=44	=44	=44	=44
8f\L	.	.	8r	.	8r	.	2r	.	1ryy	.	1ryy	1ryy
8F\J	.	.	8a/L	.	8cc\L	.	.	.	.	.	.	.
24r	.	.	8a/	.	8cc\	.	.	.	.	.	.	.
24F\LL	.	.	.	.	.	.	.	.	.	.	.	.
24G\	.	.	.	.	.	.	.	.	.	.	.	.
24A\	.	.	8a/J	.	8cc\J	.	.	.	.	.	.	.
24G\	.	.	.	.	.	.	.	.	.	.	.	.
24F\JJ	.	.	.	.	.	.	.	.	.	.	.	.
!LO:TX:t=P:problem=mixed beam	!	!	!	!	!	!	!	!	!	!	!	!
8B-\L	.	.	8r	.	8r	.	4.B-\	Cru-	.	.	.	.
8BB-/J	.	.	8b-\L	.	8dd\L	.	.	.	.	.	.	.
24r	.	.	8b-\	.	8dd\	.	.	.	.	.	.	.
24BB-/LL	.	.	.	.	.	.	.	.	.	.	.	.
24C/	.	.	.	.	.	.	.	.	.	.	.	.
24D/	.	.	8b-\J	.	8dd\J	.	8B-\	-ci-	.	.	.	.
24C/	.	.	.	.	.	.	.	.	.	.	.	.
24BB-/JJ	.	.	.	.	.	.	.	.	.	.	.	.
!LO:LB:g=original	!	!	!	!	!	!	!	!	!	!	!	!
=45	=45	=45	=45	=45	=45	=45	=45	=45	=45	=45	=45	=45
!LO:TX:t=P:problem=mixed beam	!	!	!	!	!	!	!	!	!	!	!	!
8F\L	.	X X 7	8r	.	8r	.	(4B-\	-fi-	1ryy	.	1ryy	1ryy
8FF/J	.	.	8cc\L	.	8ee-\L	.	.	.	.	.	.	.
24r	.	.	8cc\	.	8ee-\	.	4At\)	.	.	.	.	.
24FF/LL	.	.	.	.	.	.	.	.	.	.	.	.
24GG/	.	.	.	.	.	.	.	.	.	.	.	.
24AA/	.	.	8cc\J	.	8ee-\J	.	.	.	.	.	.	.
24GG/	.	.	.	.	.	.	.	.	.	.	.	.
24FF/JJ	.	.	.	.	.	.	.	.	.	.	.	.
.	.	.	8qqcc/	.	8qqee-/	.	.	.	.	.	.	.
8.BB-/L	.	.	2b-\	.	2dd\	.	2B-\	-xus	.	.	.	.
16BB-/Jk	.	.	.	.	.	.	.	.	.	.	.	.
8D\L|	.	.	.	.	.	.	.	.	.	.	.	.
8F\J|	.	.	.	.	.	.	.	.	.	.	.	.
=46	=46	=46	=46	=46	=46	=46	=46	=46	=46	=46	=46	=46
!LO:TX:t=P:problem=mixed beam	!	!	!	!	!	!	!	!	!	!	!	!
8B-\L	.	.	8r	.	8r	.	8.BB-/	e-	1ryy	.	1ryy	1ryy
8BB-/J	.	.	8f/L	.	8dd\L	.	.	.	.	.	.	.
.	.	.	.	.	.	.	16C/	-ti-	.	.	.	.
24r	.	.	8f/	.	8dd\	.	8.D\	-am	.	.	.	.
24BB-/LL	.	.	.	.	.	.	.	.	.	.	.	.
24C/	.	.	.	.	.	.	.	.	.	.	.	.
24D/	.	.	8f/J	.	8dd\J	.	.	.	.	.	.	.
24C/	.	.	.	.	.	.	.	.	.	.	.	.
.	.	.	.	.	.	.	16E-\	pro	.	.	.	.
24BB-/JJ	.	.	.	.	.	.	.	.	.	.	.	.
!LO:TX:t=P:problem=mixed beam	!	!	!	!	!	!	!	!	!	!	!	!
!	!	!	!	!	!LO:LB:g=original	!	!LO:LB:g=original	!	!	!	!	!
8F\L	.	.	8r	.	8r	.	4F\	no-	.	.	.	.
8FF/J	.	.	8a/L	.	8cc\L	.	.	.	.	.	.	.
24r	.	.	8a/	.	8cc\	.	4FF/	-bis	.	.	.	.
24F\LL	.	.	.	.	.	.	.	.	.	.	.	.
24G\	.	.	.	.	.	.	.	.	.	.	.	.
24A\	.	.	8a/J	.	8cc\J	.	.	.	.	.	.	.
24G\	.	.	.	.	.	.	.	.	.	.	.	.
24F\JJ	.	.	.	.	.	.	.	.	.	.	.	.
!	!	!	!LO:LB:g=original	!	!	!	!	!	!	!	!	!
=47	=47	=47	=47	=47	=47	=47	=47	=47	=47	=47	=47	=47
!LO:TX:t=P:problem=mixed beam	!	!	!	!	!	!	!	!	!	!	!	!
8c\L	.	.	8r	.	8r	.	8.C/	e-	1ryy	.	1ryy	1ryy
8C/J	.	.	8g/L	.	8ee-\L	.	.	.	.	.	.	.
.	.	.	.	.	.	.	16D/	-ti-	.	.	.	.
24r	.	.	8g/	.	8ee-\	.	8.E-\	-am	.	.	.	.
24C\LL	.	.	.	.	.	.	.	.	.	.	.	.
24D\	.	.	.	.	.	.	.	.	.	.	.	.
24E-\	.	.	8g/J	.	8ee-\J	.	.	.	.	.	.	.
24D\	.	.	.	.	.	.	.	.	.	.	.	.
.	.	.	.	.	.	.	16F\	pro	.	.	.	.
24C\JJ	.	.	.	.	.	.	.	.	.	.	.	.
!LO:TX:t=P:problem=mixed beam	!	!	!	!	!	!	!	!	!	!	!	!
8G\L	.	.	8r	.	8r	.	4G\	no-	.	.	.	.
8GG/J	.	.	8b-\L	.	8dd\L	.	.	.	.	.	.	.
24r	.	.	8b-\	.	8dd\	.	4GG/	-bis	.	.	.	.
24G\LL	.	.	.	.	.	.	.	.	.	.	.	.
24A\	.	.	.	.	.	.	.	.	.	.	.	.
24B-\	.	.	8b-\J	.	8dd\J	.	.	.	.	.	.	.
24A\	.	.	.	.	.	.	.	.	.	.	.	.
24G\JJ	.	.	.	.	.	.	.	.	.	.	.	.
=48	=48	=48	=48	=48	=48	=48	=48	=48	=48	=48	=48	=48
8C/L	.	.	(16cc\LL	.	(16ee-\LL	.	(4.C/	sub	1ryy	.	1ryy	1ryy
.	.	.	16b-\)	.	16dd\)	.	.	.	.	.	.	.
8C/	.	.	(16b-\	.	(16dd\	.	.	.	.	.	.	.
.	.	.	16a\JJ)	.	16cc\JJ)	.	.	.	.	.	.	.
8C/	.	X X 6	(16a/LL	.	(16cc\LL	.	.	.	.	.	.	.
.	.	.	16g/)	.	16b-\)	.	.	.	.	.	.	.
8C#X/J	.	X 7 5	(16g/	.	(16b-\	.	8C#X/)	.	.	.	.	.
.	.	.	16f#X/JJ)	.	16a\JJ)	.	.	.	.	.	.	.
8D\L	.	X X #	(16f#/LL	.	(16a\LL	.	8.D\	Pon-	.	.	.	.
.	.	.	16a/)	.	16ff#X\)	.	.	.	.	.	.	.
8D\	.	.	(16b-/	.	(16gg\	.	.	.	.	.	.	.
.	.	.	16a/JJ)	.	16ff#\JJ)	.	16D\	-ti-	.	.	.	.
8D\	.	.	(16b-/LL	.	(16gg\LL	.	8D\	-o	.	.	.	.
.	.	.	16a/)	.	16ff#\)	.	.	.	.	.	.	.
8D\J	.	.	(16b-/	.	(16gg\	.	8D\	pi-	.	.	.	.
.	.	.	16a/JJ)	.	16ff#\JJ)	.	.	.	.	.	.	.
=49	=49	=49	=49	=49	=49	=49	=49	=49	=49	=49	=49	=49
8E-\L	.	X X 6/	8g/L	.	(16gg\LL	.	2E-T\	-la-	1ryy	.	1ryy	1ryy
.	.	.	.	.	16cc#X\)	.	.	.	.	.	.	.
8E-\	.	.	8g/	.	(16dd\	.	.	.	.	.	.	.
.	.	.	.	.	16cc#\JJ)	.	.	.	.	.	.	.
8E-\	.	.	8g/	.	(16dd\LL	.	.	.	.	.	.	.
.	.	.	.	.	16cc#\)	.	.	.	.	.	.	.
8E-\J	.	.	8g/J	.	(16dd\	.	.	.	.	.	.	.
.	.	.	.	.	16cc#\JJ)	.	.	.	.	.	.	.
!LO:TX:t=P:problem=mixed beam	!	!	!	!	!	!	!	!	!	!	!	!
8D\L	.	X X #	8r	.	8r	.	2D\	-to	.	.	.	.
8DD/J	.	.	8f#X/L	.	8dd\L	.	.	.	.	.	.	.
24r	.	.	8f#/	.	8a\	.	.	.	.	.	.	.
24D\LL	.	.	.	.	.	.	.	.	.	.	.	.
24En\	.	.	.	.	.	.	.	.	.	.	.	.
24F#X\	.	.	8f#/J	.	8a\J	.	.	.	.	.	.	.
24E\	.	.	.	.	.	.	.	.	.	.	.	.
24D\JJ	.	.	.	.	.	.	.	.	.	.	.	.
!LO:LB:g=original	!	!	!	!	!	!	!	!	!	!	!	!
=50	=50	=50	=50	=50	=50	=50	=50	=50	=50	=50	=50	=50
!	!	!	!	!LO:DY:b:t=mezzofor&colon;	!	!LO:DY:b:t=mezzofor&colon;	!	!	!	!	!	!
4c\|	.	.	4cc\|	mf	4cc\|	mf	4c\	paſ-	1ryy	.	1ryy	1ryy
4F#X\|	mf	.	4f#X/|	.	4f#X/|	.	4F#X\	-sus	.	.	.	.
*	*	*	*	*	*	*	*	*ij	*	*	*	*
4e-X\|	.	.	4ee-\|	.	4ee-\|	.	4e-\	paſ-	.	.	.	.
4`\|	.	.	4a/|	.	4a/|	.	4A\	-sus	.	.	.	.
*	*	*	*	*	*	*	*	*Xij	*	*	*	*
=51	=51	=51	=51	=51	=51	=51	=51	=51	=51	=51	=51	=51
(8B-\L	.	.	(8b-/L	.	(8b-/L|	.	(8B-\L	et	1ryy	.	1ryy	1ryy
8F#X\	.	.	8f#X/	.	8f#X/|	.	8F#X\	.	.	.	.	.
8G\)	.	.	8g/)	.	8g/)	.	8G\J)	.	.	.	.	.
8E-\J|	.	.	8e-/J|	.	8e-/J|	.	8E-\|	se-	.	.	.	.
!	!	!	!	!	!LO:LB:g=original	!	!	!	!	!	!	!
4C#X/|	.	.	4c#X/|	.	4c#X/|	.	(4C#X/	-pul-	.	.	.	.
4D/|	.	.	4d/|	.	4d/|	.	8.Dt/)	.	.	.	.	.
.	.	.	.	.	.	.	16D/	-tus	.	.	.	.
=52	=52	=52	=52	=52	=52	=52	=52	=52	=52	=52	=52	=52
!LO:TX:t=P:problem=mixed beam	!	!	!LO:TX:t=P:problem=mixed beam	!	!LO:TX:t=P:problem=mixed beam	!	!	!	!	!	!	!
8G\L	.	X X -	8G/L	.	8G/L	.	4GG/	est	1ryy	.	1ryy	1ryy
!	!	!	!	!LO:DY:b:t=p&colon;	!	!LO:DY:b:t=p&colon;	!	!	!	!	!	!
8GG/J	.	X X n	8bn\	p	8dd\	p	.	.	.	.	.	.
24r	.	.	8b\	.	8dd\	.	2G\	et	.	.	.	.
24G\LL	.	.	.	.	.	.	.	.	.	.	.	.
24A\	.	.	.	.	.	.	.	.	.	.	.	.
24Bn\	.	.	8b\J	.	8dd\J	.	.	.	.	.	.	.
24A\	.	.	.	.	.	.	.	.	.	.	.	.
24G\JJ	.	.	.	.	.	.	.	.	.	.	.	.
!LO:TX:t=P:problem=mixed beam	!	!	!	!	!	!	!	!	!	!	!	!
8c\L	.	.	8r	.	8r	.	.	.	.	.	.	.
8C/J	.	.	8cc\L	.	8ee-\L	.	.	.	.	.	.	.
24r	.	.	8cc\	.	8ee-\	.	[4G\	se-	.	.	.	.
24C\LL	.	.	.	.	.	.	.	.	.	.	.	.
24D\	.	.	.	.	.	.	.	.	.	.	.	.
24E-\	.	.	8cc\J	.	8ee-\J	.	.	.	.	.	.	.
24D\	.	.	.	.	.	.	.	.	.	.	.	.
24C\JJ	.	.	.	.	.	.	.	.	.	.	.	.
!	!	!	!LO:LB:g=original	!	!	!	!	!	!	!	!	!
=53	=53	=53	=53	=53	=53	=53	=53	=53	=53	=53	=53	=53
!LO:TX:t=P:problem=mixed beam	!	!	!	!	!	!	!	!	!	!	!	!
8G\L	.	X 7 n	8r	.	8r	.	2GT\]	.	1ryy	.	1ryy	1ryy
8GG/J	.	.	8dd\L	.	8ff\L	.	.	.	.	.	.	.
24r	.	.	8dd\	.	8ff\	.	.	.	.	.	.	.
24GG/LL	.	.	.	.	.	.	.	.	.	.	.	.
24AA/	.	.	.	.	.	.	.	.	.	.	.	.
24BBn/	.	.	8dd\J	.	8ff\J	.	.	.	.	.	.	.
24AA/	.	.	.	.	.	.	.	.	.	.	.	.
24GG/JJ	.	.	.	.	.	.	.	.	.	.	.	.
8C/L	.	.	8r	.	8r	.	4.G\	-pul-	.	.	.	.
8CC/J	.	.	8cc\L	.	8ee-\L	.	.	.	.	.	.	.
24r	.	.	8cc\	.	8ee-\	.	.	.	.	.	.	.
24C\LL	.	.	.	.	.	.	.	.	.	.	.	.
24D\	.	.	.	.	.	.	.	.	.	.	.	.
24E-\	.	.	8cc\J	.	8ee-\J	.	8G\	-tus	.	.	.	.
24D\	.	.	.	.	.	.	.	.	.	.	.	.
24C\JJ	.	.	.	.	.	.	.	.	.	.	.	.
=54	=54	=54	=54	=54	=54	=54	=54	=54	=54	=54	=54	=54
0GG	.	.	0bn	.	0dd	.	0G	est.	1ryy	.	1ryy	1ryy
=55	=55	=55	=55	=55	=55	=55	=55	=55	=55	=55	=55	=55
.	.	.	.	.	.	.	.	.	1ryy	.	1ryy	1ryy
!	!	!	!	!	!	!	!LO:PB:g=original	!	!LO:PB:g=original	!	!LO:LB:g=original	!LO:LB:g=original
=56||	=56||	=56||	=56||	=56||	=56||	=56||	=56||	=56||	=56||	=56||	=56||	=56||
*k[f#c#]	*	*	*k[f#c#]	*	*k[f#c#]	*	*k[f#c#]	*	*k[f#c#]	*	*k[f#c#]	*k[f#c#]
*D:	*	*	*D:	*	*D:	*	*D:	*	*D:	*	*D:	*D:
*M3/8	*	*	*M3/8	*	*M3/8	*	*M3/8	*	*M3/8	*	*M3/8	*M3/8
!LO:TX:b:i:t=Et resurrexit.	!	!	!	!	!LO:TX:a:i:t=allo&colon;	!	!	!	!	!	!LO:TX:b:i:t=Et Resurrexit.	!LO:TX:b:i:t=Et Resurrexit
!LO:TX:a:i:t=Allo&colon; Tut&colon;	!	!	!LO:TX:a:i:t=Allo&colon;	!	!LO:TX:b:i:t=Et Resurrexit	!	!LO:TX:a:i:t=Allo&colon;	!	!LO:TX:a:i:t=Allo&colon;	!	!LO:TX:a:i:t=allo&colon;	!LO:TX:a:i:t=all(egr)o&colon;
!	!	!	!	!	!	!	!	!	!	!	!LO:TX:a:t=P:problem=w źródle brak kasowników przykluczowych	!LO:TX:a:t=P:problem=w źródle brak kasowników przykluczowych
8D\	.	.	16r	.	2.r	.	4.r	.	16r	.	8d/	8d/
.	.	.	16d/LL	.	.	.	.	.	16d/	Et	.	.
8r	.	.	16e/	.	.	.	.	.	16e/LL	re-	8r	8r
.	.	.	16f#/	.	.	.	.	.	16f#/	.	.	.
8r	.	.	16g/	.	.	.	.	.	16g/	.	8r	8r
.	.	.	16a/JJ	.	.	.	.	.	16a/JJ	.	.	.
!LO:LB:g=original	!	!	!	!	!	!	!	!	!	!	!	!
=57	=57	=57	=57	=57	=57	=57	=57	=57	=57	=57	=57	=57
16r	.	.	16b/LL	.	.	.	16r	.	16b\LL	.	8d/	8d/
16D\LL	.	X X 3	16f#/	.	.	.	16D\	Et	16f#\	.	.	.
16E\	.	X X 3	16g/	.	.	.	16E\LL	re-	16g\	.	8r	8r
16F#\	.	X X 3	16a/	.	.	.	16F#\	.	16a\	.	.	.
16G\	.	X X 3	16b/	.	.	.	16G\	.	16b\	.	8r	8r
16A\JJ	.	X X 3	16cc#/JJ	.	.	.	16A\JJ	.	16cc#\JJ	.	.	.
=58	=58	=58	=58	=58	=58	=58	=58	=58	=58	=58	=58	=58
16B\LL	.	X X 3	16dd\LL	.	16r	.	16B\LL	.	16dd\LL	.	8d/	8d/
16F#\	.	X X 6	16a\	.	16dd\LL	.	16F#\	.	16a\	.	.	.
16G\	.	X X 6	16b\	.	16ee\	.	16G\	.	16b\	.	8r	8r
16A\	.	X X 6	16cc#\	.	16ff#\	.	16A\JJ	.	16cc#\JJ	.	.	.
16B\	.	X X 6	16dd\	.	16gg\	.	16B\LL	-sur-	(16dd\LL	-sur-	8r	8r
16c#\JJ	.	X X 6	16ee\JJ	.	16aa\JJ	.	16c#\JJ	.	16ee\JJ)	.	.	.
=59	=59	=59	=59	=59	=59	=59	=59	=59	=59	=59	=59	=59
!	!	!	!LO:TX:t=P:problem=mixed beam	!	!LO:TX:t=P:problem=mixed beam	!	!	!	!	!	!	!
4d\	.	.	32ff#\LLL	.	32aa\LLL	.	4d\	-re-	4ff#\	-re-	8d/	8d/
.	.	.	32f#/	.	32a/	.	.	.	.	.	.	.
.	.	.	32g/	.	32b/	.	.	.	.	.	.	.
.	.	.	32a/JJJ	.	32cc#/JJJ	.	.	.	.	.	.	.
.	.	.	16b\LL	.	16dd\LL	.	.	.	.	.	8r	8r
.	.	.	16cc#\	.	16ee\	.	.	.	.	.	.	.
8d\	.	.	16dd\	.	16ff#\	.	8d\	-xit	8ff#\	-xit	8r	8r
.	.	.	16ee\JJ	.	16gg\JJ	.	.	.	.	.	.	.
=60	=60	=60	=60	=60	=60	=60	=60	=60	=60	=60	=60	=60
4.r	.	.	8.ff#\L	.	8.aa\L	.	4.r	.	8.ff#\	ter-	8.ff#\L	8.aa\L
.	.	.	16ee\K	.	16gg\K	.	.	.	16ee\	-ti-	16ee\K	16gg\K
.	.	.	8dd\J	.	8ff#\J	.	.	.	8dd\	-a	8dd\J	8ff#\J
!	!	!	!	!	!LO:LB:g=original	!	!	!	!	!	!	!
=61	=61	=61	=61	=61	=61	=61	=61	=61	=61	=61	=61	=61
8.A\L	.	.	4cc#\	.	4ee\	.	8.A\	ter-	4cc#\	di-	4a/	4ee\
16G\K	.	.	.	.	.	.	16G\	-ti-	.	.	.	.
8F#\J	.	X X 6	8dd\	.	8ff#\	.	8F#\	-a	8dd\	-e	8dd\	8ff#\
!	!	!	!LO:LB:g=original	!	!	!	!	!	!	!	!	!
=62	=62	=62	=62	=62	=62	=62	=62	=62	=62	=62	=62	=62
4E\	.	.	8.ee\L	.	8.gg\L	.	4E\	di-	8.ee\	ter-	4ee\	8.gg\L
.	.	.	16dd\K	.	16ff#\K	.	.	.	16dd\	-ti-	.	16ff#\K
8F#\	.	X 7 5	8cc#\J	.	8ee\J	.	8F#\	-e	8cc#\	-a	8r	8ee\J
=63	=63	=63	=63	=63	=63	=63	=63	=63	=63	=63	=63	=63
8.G\L	.	X X 5	4b\	.	4dd\	.	8.G\	ter-	4b\	di-	8r	4dd\
.	.	.	.	.	.	.	.	.	.	.	8r	.
!	!	!	!	!	!	!	!LO:N:vis=8	!	!	!	!	!
16F#\K	.	.	.	.	.	.	16F#\	-ti-	.	.	.	.
8E\J	.	X X 6	8cc#\	.	8ee\	.	8E\	-a	8cc#\	-e	8a/	8ee\
=64	=64	=64	=64	=64	=64	=64	=64	=64	=64	=64	=64	=64
8D/L	.	.	8dd\L|	.	8ff#\L	.	8D\	se-	8dd\	se-	8dd\L	8ff#\L
8GG/	.	X 8 6	8ee\|	.	8gg\	.	8G\	-cun-	8ee\	-cun-	8ee\	8gg\
8GG#X/J	.	X 7 5	8dd\J|	.	8ff#\J	.	16G#X\	-dum	16dd,\	-dum	8dd\J	8ff#\J
.	.	.	.	.	.	.	16G#\	scri-	16dd\	scrip-	.	.
!	!	!	!	!	!	!	!	!	!LO:LB:g=original	!	!	!
=65	=65	=65	=65	=65	=65	=65	=65	=65	=65	=65	=65	=65
8.AA/L	.	X 6 4	8dd\L	.	8ff#\L|	.	8A\	-ptu-	8dd\	-tu-	8dd\L	8ff#\L
.	.	.	8cc#\J	.	8ee\J|	.	8AA/	-ras	8cc#\	-ras,	8a\J	8ee\J
16AA/L|	.	X 5 3	.	.	.	.	.	.	.	.	.	.
16C#/|	.	.	8r	.	8r	.	8r	.	8r	.	8r	8r
16E/JJ|	.	.	.	.	.	.	.	.	.	.	.	.
=66	=66	=66	=66	=66	=66	=66	=66	=66	=66	=66	=66	=66
8A\L	.	.	8cc#\L	.	32cc#\LLL	.	8r	.	8r	.	8r	8r
.	.	.	.	.	32ee\	.	.	.	.	.	.	.
.	.	.	.	.	32dd\	.	.	.	.	.	.	.
.	.	.	.	.	32ee\JJJ	.	.	.	.	.	.	.
8A\	.	.	8cc#\	.	16cc#\LL	.	8A\	et	8cc#\	et	8ee\L	8ee\L
.	.	.	.	.	16ee\	.	.	.	.	.	.	.
8G#X\J	.	.	8b\J	.	16b\	.	8G#X\	as-	8b\	as-	8ee\J	8ee\J
.	.	.	.	.	16ee\JJ	.	.	.	.	.	.	.
!	!	!	!	!	!	!	!LO:LB:g=original	!	!	!	!	!
=67	=67	=67	=67	=67	=67	=67	=67	=67	=67	=67	=67	=67
!LO:TX:t=P:problem=mixed beam	!	!	!	!	!	!	!	!	!	!	!	!
8.A\L	.	.	4cc#\	.	32cc#\LLL	.	4A\	-cen-	4cc#\	-cen-	4a/	4ee\
.	.	.	.	.	32a\	.	.	.	.	.	.	.
.	.	.	.	.	32cc#\	.	.	.	.	.	.	.
.	.	.	.	.	32ee\JJJ	.	.	.	.	.	.	.
.	.	.	.	.	16aa\LL	.	.	.	.	.	.	.
16AA/L	.	.	.	.	16ee\	.	.	.	.	.	.	.
16C#/	.	.	8cc#\	.	16cc#\	.	8A\	-dit	8cc#\	-dit	8r	8r
16E/JJ	.	.	.	.	16a\JJ	.	.	.	.	.	.	.
=68	=68	=68	=68	=68	=68	=68	=68	=68	=68	=68	=68	=68
8A\L	.	.	32cc#\LLL	.	8cc#\L	.	8A\	in	8cc#\	in	8r	8r
.	.	.	32ee\	.	.	.	.	.	.	.	.	.
.	.	.	32dd\	.	.	.	.	.	.	.	.	.
.	.	.	32ee\JJJ	.	.	.	.	.	.	.	.	.
8A\	.	.	16cc#\LL	.	8cc#\	.	8A\	Cae-	8cc#\	Cae-	8ee\L	8ee\L
.	.	.	16ee\	.	.	.	.	.	.	.	.	.
8G#X\J	.	.	16b\	.	8b\J	.	8G#X\	-lum	8b\	-lum	8ee\J	8ee\J
.	.	.	16ee\JJ	.	.	.	.	.	.	.	.	.
!	!	!	!	!	!	!	!	!	!	!	!LO:LB:g=original	!
=69	=69	=69	=69	=69	=69	=69	=69	=69	=69	=69	=69	=69
4A\	.	.	32cc#\LLL	.	4cc#\	.	8.A\	se-	8.cc#\	se-	4a/	4ee\
.	.	.	32a\	.	.	.	.	.	.	.	.	.
.	.	.	32cc#\	.	.	.	.	.	.	.	.	.
.	.	.	32ee\JJJ	.	.	.	.	.	.	.	.	.
.	.	.	16aa\LL	.	.	.	.	.	.	.	.	.
.	.	.	16ee\	.	.	.	16A\	-det	16cc#\	-det	.	.
8A\	.	.	16cc#\	.	8cc#\	.	8A\	ad	8cc#\	ad	8r	8r
.	.	.	16a\JJ	.	.	.	.	.	.	.	.	.
!	!	!	!	!	!	!	!	!	!	!	!	!LO:LB:g=original
=70	=70	=70	=70	=70	=70	=70	=70	=70	=70	=70	=70	=70
8B\L	.	.	8dd\L	.	32dd\LLL	.	8B\	dex-	8dd\	dex-	8r	8r
.	.	.	.	.	32ff#\	.	.	.	.	.	.	.
.	.	.	.	.	32ee\	.	.	.	.	.	.	.
.	.	.	.	.	32ff#\JJJ	.	.	.	.	.	.	.
8B\	.	.	8dd\	.	16dd\LL	.	8B\	-te-	8dd\	-te-	8f#/L	8f#/L
.	.	.	.	.	16ff#\	.	.	.	.	.	.	.
8A#X\J	.	.	8cc#\J	.	16cc#\	.	8A#X\	-ram	8cc#\	-ram	8f#/J	8f#/J
.	.	.	.	.	16ff#\JJ	.	.	.	.	.	.	.
!	!	!	!	!	!LO:LB:g=original	!	!	!	!	!	!	!
=71	=71	=71	=71	=71	=71	=71	=71	=71	=71	=71	=71	=71
!LO:TX:t=P:problem=mixed beam	!	!	!	!	!	!	!	!	!	!	!	!
8.B\L	.	.	4dd\	.	32dd\LLL	.	4B\	Pa-	4dd\	Pa-	4f#/	4f#/
.	.	.	.	.	32b\	.	.	.	.	.	.	.
.	.	.	.	.	32dd\	.	.	.	.	.	.	.
.	.	.	.	.	32ff#\JJJ	.	.	.	.	.	.	.
.	.	.	.	.	16bb\LL	.	.	.	.	.	.	.
16BB/L	.	.	.	.	16ff#\	.	.	.	.	.	.	.
16D/	.	.	8dd\	.	16dd\	.	8B\	-tris	8dd\	-tris	8r	8r
16F#/JJ	.	.	.	.	16b\JJ	.	.	.	.	.	.	.
!LO:LB:g=original	!	!	!	!	!	!	!	!	!	!	!	!
=72	=72	=72	=72	=72	=72	=72	=72	=72	=72	=72	=72	=72
8B\L	.	.	32dd\LLL	.	8dd\L	.	8B\	et	8dd\	et	8r	8r
.	.	.	32ff#\	.	.	.	.	.	.	.	.	.
.	.	.	32ee\	.	.	.	.	.	.	.	.	.
.	.	.	32ff#\JJJ	.	.	.	.	.	.	.	.	.
8B\	.	.	16dd\LL	.	8dd\	.	16B\	i-	16dd\	i-	8f#/L	8f#/L
.	.	.	16ff#\	.	.	.	16B\	-te-	16dd\	-te-	.	.
8A#X\J	.	.	16cc#\	.	8cc#\J	.	16A#X\	-rum	16cc#\	-rum	8f#/J	8f#/J
.	.	.	16ff#\JJ	.	.	.	16A#\	ven-	16cc#\	ven-	.	.
!	!	!	!LO:LB:g=original	!	!	!	!	!	!	!	!	!
=73	=73	=73	=73	=73	=73	=73	=73	=73	=73	=73	=73	=73
4B\	.	.	32dd\LLL	.	4dd\	.	8.B\	-tu-	8.dd\	-tu-	4f#/	4f#/
.	.	.	32b\	.	.	.	.	.	.	.	.	.
.	.	.	32dd\	.	.	.	.	.	.	.	.	.
.	.	.	32ff#\JJJ	.	.	.	.	.	.	.	.	.
.	.	.	16bb\LL	.	.	.	.	.	.	.	.	.
.	.	.	16ff#\	.	.	.	16B\	-rus	16dd\	-rus	.	.
8B\	.	.	16dd\	.	8dd\	.	8B\	est	8dd\	est	8r	8r
.	.	.	16b\JJ	.	.	.	.	.	.	.	.	.
=74	=74	=74	=74	=74	=74	=74	=74	=74	=74	=74	=74	=74
8E\L	.	.	8gg\L	.	32gg\LLL	.	8E\	cum	8gg\	cum	1.r	1.r
.	.	.	.	.	32bb\	.	.	.	.	.	.	.
.	.	.	.	.	32aa\	.	.	.	.	.	.	.
.	.	.	.	.	32bb\JJJ	.	.	.	.	.	.	.
!	!	!	!	!	!	!	!	!	!LO:LB:g=original	!	!	!
8E\	.	.	8gg\	.	16gg\LL	.	16E\	glo-	16gg\	glo-	.	.
.	.	.	.	.	16bb\	.	32E\	-ri-	32gg\	-ri-	.	.
.	.	.	.	.	.	.	32E\	-a	32gg\	-a	.	.
8D#X\J	.	.	8ff#\J	.	16ff#\	.	16D#X\	ju-	16ff#\	ju-	.	.
.	.	.	.	.	16bb\JJ	.	16D#\	-di-	16ff#\	-di-	.	.
=75	=75	=75	=75	=75	=75	=75	=75	=75	=75	=75	=75	=75
!	!	!	!	!	!LO:TX:t=P:problem=mixed beam	!	!	!	!	!	!	!
8.E\L	.	.	4gg\	.	32gg\LLL	.	4E\	-ca-	4gg\	-ca-	.	.
.	.	.	.	.	32e/	.	.	.	.	.	.	.
.	.	.	.	.	32g/	.	.	.	.	.	.	.
.	.	.	.	.	32b/JJJ	.	.	.	.	.	.	.
.	.	.	.	.	16ee\LL	.	.	.	.	.	.	.
16E\L	.	.	.	.	16b\	.	.	.	.	.	.	.
16G\	.	.	8gg\	.	16g\	.	8E\	-re	8gg\	-re	.	.
16B\JJ	.	.	.	.	16e\JJ	.	.	.	.	.	.	.
!	!	!	!	!	!	!	!LO:LB:g=original	!	!	!	!	!
=76	=76	=76	=76	=76	=76	=76	=76	=76	=76	=76	=76	=76
8E\L	.	.	32gg\LLL	.	8gg\L	.	8E\	vi-	8gg\	vi-	.	.
.	.	.	32bb\	.	.	.	.	.	.	.	.	.
.	.	.	32aa\	.	.	.	.	.	.	.	.	.
.	.	.	32bb\JJJ	.	.	.	.	.	.	.	.	.
8E\	.	.	16gg\LL	.	8gg\	.	8E\	-vos	8gg\	-vos	.	.
.	.	.	16bb\	.	.	.	.	.	.	.	.	.
8D#X\J	.	.	16ff#\	.	8ff#\J	.	8D#X\	et	8ff#\	et	.	.
.	.	.	16bb\JJ	.	.	.	.	.	.	.	.	.
=77	=77	=77	=77	=77	=77	=77	=77	=77	=77	=77	=77	=77
!	!	!	!LO:TX:t=P:problem=mixed beam	!	!	!	!	!	!	!	!	!
4E\	.	.	32gg\LLL	.	4gg\	.	8.E\	mor-	8.gg\	mor-	.	.
.	.	.	32e/	.	.	.	.	.	.	.	.	.
.	.	.	32g/	.	.	.	.	.	.	.	.	.
.	.	.	32b/JJJ	.	.	.	.	.	.	.	.	.
.	.	.	16ee\LL	.	.	.	.	.	.	.	.	.
.	.	.	16b\	.	.	.	16E\	-tu-	16gg\	-tu-	.	.
8E\	.	.	16g\	.	8gg\	.	8E\	-os	8gg\	-os,	.	.
.	.	.	16e\JJ	.	.	.	.	.	.	.	.	.
=78	=78	=78	=78	=78	=78	=78	=78	=78	=78	=78	=78	=78
8G\L	.	.	8bb\L	.	32bb\LLL	.	8r	.	8r	.	8r	8r
.	.	.	.	.	32ddd\	.	.	.	.	.	.	.
.	.	.	.	.	32ccc#\	.	.	.	.	.	.	.
.	.	.	.	.	32ddd\JJJ	.	.	.	.	.	.	.
8G\	.	.	8bb\	.	16bb\LL	.	8G\	cu-	8dd\	cu-	8d/L	8d/L
.	.	.	.	.	16ddd\	.	.	.	.	.	.	.
8F#\J	.	.	8aa\J	.	16aa\	.	8F#\	-jus	8dd\	-jus	8d/J	8d/J
.	.	.	.	.	16ddd\JJ	.	.	.	.	.	.	.
=79	=79	=79	=79	=79	=79	=79	=79	=79	=79	=79	=79	=79
!LO:TX:t=P:problem=mixed beam	!	!	!	!	!LO:TX:t=P:problem=mixed beam	!	!	!	!	!	!	!
8.G\L	.	.	4bb\	.	32bb\LLL	.	4G\	re-	4dd\	re-	4d/	4d/
.	.	.	.	.	32g/	.	.	.	.	.	.	.
.	.	.	.	.	32b/	.	.	.	.	.	.	.
.	.	.	.	.	32dd/JJJ	.	.	.	.	.	.	.
!	!	!	!	!	!LO:LB:g=original	!	!	!	!	!	!	!
.	.	.	.	.	16gg\LL	.	.	.	.	.	.	.
16GG/L	.	.	.	.	16dd\	.	.	.	.	.	.	.
16BB/	.	.	8bb\	.	16b\	.	8G\	-gni	8dd\	-gni	8r	8r
16D/JJ	.	.	.	.	16g\JJ	.	.	.	.	.	.	.
=80	=80	=80	=80	=80	=80	=80	=80	=80	=80	=80	=80	=80
8G\L	.	.	32bb\LLL	.	8bb\L	.	8G\	non	8dd\	non	8r	8r
.	.	.	32ddd\	.	.	.	.	.	.	.	.	.
.	.	.	32ccc#\	.	.	.	.	.	.	.	.	.
.	.	.	32ddd\JJJ	.	.	.	.	.	.	.	.	.
8G\	.	.	16bb\LL	.	8bb\	.	8G\	e-	8dd\	e-	8d/L	8d/L
.	.	.	16ddd\	.	.	.	.	.	.	.	.	.
8F#\J	.	.	16aa\	.	8aa\J	.	8F#\	-rit	8dd\	-rit	8d/J	8d/J
.	.	.	16ddd\JJ	.	.	.	.	.	.	.	.	.
=81	=81	=81	=81	=81	=81	=81	=81	=81	=81	=81	=81	=81
!	!	!	!LO:TX:t=P:problem=mixed beam	!	!	!	!	!	!	!	!	!
4G\	.	.	32bb\LLL	.	4bb\	.	4G\	fi-	4dd\	fi-	4d/	4d/
.	.	.	32g/	.	.	.	.	.	.	.	.	.
.	.	.	32b/	.	.	.	.	.	.	.	.	.
.	.	.	32dd/JJJ	.	.	.	.	.	.	.	.	.
.	.	.	16gg\LL	.	.	.	.	.	.	.	.	.
.	.	.	16dd\JJ	.	.	.	.	.	.	.	.	.
8G\	.	.	16b/LL	.	8bb\	.	8G\	-nis	8dd\	-nis	8r	8r
.	.	.	16g/JJ	.	.	.	.	.	.	.	.	.
!	!	!	!LO:LB:g=original	!	!	!	!	!	!	!	!	!
=82	=82	=82	=82	=82	=82	=82	=82	=82	=82	=82	=82	=82
8d\L	.	.	8ff#\L	.	32ff#\LLL	.	8r	.	8r	.	8dd\L	8ff#\L
.	.	.	.	.	32aa\	.	.	.	.	.	.	.
.	.	.	.	.	32gg\	.	.	.	.	.	.	.
.	.	.	.	.	32aa\JJJ	.	.	.	.	.	.	.
8d\	.	.	8ff#\	.	16ff#\LL	.	8d\	et	8ff#\	et	8dd\	8ff#\
.	.	.	.	.	16aa\	.	.	.	.	.	.	.
8c#\J	.	.	8ee\J	.	16ee\	.	8c#\	in	8ee\	in	8a\J	8ee\J
.	.	.	.	.	16aa\JJ	.	.	.	.	.	.	.
=83	=83	=83	=83	=83	=83	=83	=83	=83	=83	=83	=83	=83
8.d\L	.	.	4ff#\	.	32ff#\LLL	.	8.d\	Spi-	8.ff#\	Spi-	4dd\	4ff#\
.	.	.	.	.	32dd\	.	.	.	.	.	.	.
.	.	.	.	.	32ff#\	.	.	.	.	.	.	.
.	.	.	.	.	32aa\JJJ	.	.	.	.	.	.	.
.	.	.	.	.	16ddd\LL	.	.	.	.	.	.	.
16D\L	.	.	.	.	16aa\	.	16d\	-ri-	16ff#\	-ri-	.	.
16F#\	.	.	8ff#\	.	16ff#\	.	8d\	-tum	8ff#\	-tum	8dd\	8ff#\
16A\JJ	.	.	.	.	16dd\JJ	.	.	.	.	.	.	.
!	!	!	!	!	!	!	!	!	!LO:LB:g=original	!	!	!
=84	=84	=84	=84	=84	=84	=84	=84	=84	=84	=84	=84	=84
8d\L	.	.	32ff#\LLL	.	8ff#\L	.	8r	.	8r	.	8dd\L	8ff#\L
.	.	.	32aa\	.	.	.	.	.	.	.	.	.
.	.	.	32gg\	.	.	.	.	.	.	.	.	.
.	.	.	32aa\JJJ	.	.	.	.	.	.	.	.	.
8d\	.	.	16ff#\LL	.	8ff#\	.	8d\	Sanc-	8ff#\	Sanc-	8dd\	8ff#\
.	.	.	16aa\	.	.	.	.	.	.	.	.	.
8c#\J	.	.	16ee\	.	8ee\J	.	8c#\	-tum	8ee\	-tum	8a\J	8ee\J
.	.	.	16aa\JJ	.	.	.	.	.	.	.	.	.
=85	=85	=85	=85	=85	=85	=85	=85	=85	=85	=85	=85	=85
!LO:TX:t=P:problem=mixed beam	!	!	!	!	!	!	!	!	!	!	!	!
8.d\L	.	.	32ff#\LLL	.	4ff#\	.	8.d\	Do-	8.ff#\	Do-	4dd\	4ff#\
.	.	.	32dd\	.	.	.	.	.	.	.	.	.
.	.	.	32ff#\	.	.	.	.	.	.	.	.	.
.	.	.	32aa\JJJ	.	.	.	.	.	.	.	.	.
.	.	.	16ddd\LL	.	.	.	.	.	.	.	.	.
16D/L	.	.	16aa\	.	.	.	16d\	-mi-	16ff#\	-mi-	.	.
16F#/	.	.	16ff#\	.	8ff#\	.	8d\	-num	8ff#\	-num,	8dd\	8ff#\
16A/JJ	.	.	16dd\JJ	.	.	.	.	.	.	.	.	.
!	!	!	!	!	!	!	!LO:LB:g=original	!	!	!	!	!
=86	=86	=86	=86	=86	=86	=86	=86	=86	=86	=86	=86	=86
8d\L	.	.	8ff#\L	.	32ff#\LLL	.	8d\	et	8ff#\	et	8dd\L	8ff#\L
.	.	.	.	.	32aa\	.	.	.	.	.	.	.
.	.	.	.	.	32gg\	.	.	.	.	.	.	.
.	.	.	.	.	32aa\JJJ	.	.	.	.	.	.	.
8d\	.	.	8ff#\	.	16ff#\LL	.	8d\	vi-	8ff#\	vi-	8dd\	8ff#\
.	.	.	.	.	16aa\	.	.	.	.	.	.	.
8c#\J	.	.	8ee\J	.	16ee\	.	16c#\	-vi-	16ee\	-vi-	8a\J	8ee\J
.	.	.	.	.	16aa\JJ	.	16c#\	-fi-	16ee\	-fi-	.	.
=87	=87	=87	=87	=87	=87	=87	=87	=87	=87	=87	=87	=87
!LO:TX:t=P:problem=mixed beam	!	!	!	!	!	!	!	!	!	!	!	!
8.d\L	.	.	4ff#\	.	32ff#\LLL	.	4d\	-can-	4ff#\	-can-	4dd\	4ff#\
.	.	.	.	.	32dd\	.	.	.	.	.	.	.
.	.	.	.	.	32ff#\	.	.	.	.	.	.	.
.	.	.	.	.	32aa\JJJ	.	.	.	.	.	.	.
.	.	.	.	.	16ddd\LL	.	.	.	.	.	.	.
16D/L	.	.	.	.	16aa\	.	.	.	.	.	.	.
16F#/	.	.	8ff#\	.	16ff#\	.	8d\	-tem	8ff#\	-tem,	8dd\	8ff#\
16A/JJ	.	.	.	.	16dd\JJ	.	.	.	.	.	.	.
!LO:LB:g=original	!	!	!	!	!	!	!	!	!	!	!	!
=88	=88	=88	=88	=88	=88	=88	=88	=88	=88	=88	=88	=88
16d\LL	.	.	16r	.	4.r	.	16r	.	4.r	.	1.r	1.r
16d\	.	X X 3	16ff#\LL	.	.	.	16d\	Qvi	.	.	.	.
16c#\	.	X X 3	16ee\	.	.	.	(16c#\LL	ex	.	.	.	.
16B\	.	X X 3	16dd\	.	.	.	16B\JJ)	.	.	.	.	.
16A\	.	X X 3	16cc#\	.	.	.	(16A\LL	Pa-	.	.	.	.
16G\JJ	.	X X 3	16b\JJ	.	.	.	16G\JJ)	.	.	.	.	.
!	!	!	!	!	!LO:LB:g=original	!	!	!	!	!	!	!
=89	=89	=89	=89	=89	=89	=89	=89	=89	=89	=89	=89	=89
4F#\	.	X X 6	4a/	.	16r	.	4F#\	.	16r	.	.	.
.	.	.	.	.	16aa\LL	.	.	.	16aa\	qui	.	.
.	.	.	.	.	16gg\	.	.	.	(16gg\LL	ex	.	.
.	.	.	.	.	16ff#\	.	.	.	16ff#\JJ)	.	.	.
8G\	.	X 6 5	8b/	.	16ee\	.	8G\	-tre	(16ee\LL	Pa-	.	.
.	.	.	.	.	16dd\JJ	.	.	.	16dd\JJ)	.	.	.
=90	=90	=90	=90	=90	=90	=90	=90	=90	=90	=90	=90	=90
16A\LL	.	.	16e/LL	.	4cc#\	.	16A\	Fi-	4cc#\	.	.	.
16A\	.	.	16cc#/	.	.	.	16A\	-li-	.	.	.	.
16G#X\	.	.	16b/	.	.	.	(16G#X\LL	-o-	.	.	.	.
16F#\	.	.	16a/	.	.	.	16F#\	.	.	.	.	.
16E\	.	X 7 n	16g#X/	.	8dd\	.	16E\)	.	8dd\	-tre	.	.
16D\JJ	.	.	16f#/JJ	.	.	.	16D\JJ	.	.	.	.	.
=91	=91	=91	=91	=91	=91	=91	=91	=91	=91	=91	=91	=91
4C#/	.	X X 6	4e/	.	16ee\LL	.	4C#/	-que	16ee\	Fi-	.	.
.	.	.	.	.	16ee\	.	.	.	16ee\	-li-	.	.
.	.	.	.	.	16dd\	.	.	.	16dd\LL	-o-	.	.
.	.	.	.	.	16cc#\	.	.	.	16cc#\JJ	.	.	.
8D/	.	X 6 5	8f#/	.	16b\	.	8D/	pro-	16b\	-que	.	.
.	.	.	.	.	16a\JJ	.	.	.	16a\	pro-	.	.
=92	=92	=92	=92	=92	=92	=92	=92	=92	=92	=92	=92	=92
*	*	*reverse	*	*	*	*	*	*	*	*	*	*
!LO:TX:t=P:problem=mixed beam	!	!	!	!	!	!	!	!	!	!	!	!
8.E\L	.	X X 4#	8B/L	.	8a/L	.	8E\	-ce-	8a\	-ce-	4.r	4.r
*	*	*Xreverse	*	*	*	*	*	*	*	*	*	*
.	.	.	8B/J	.	8g#X/J	.	8E\	-dit	8g#X\	-dit	.	.
16EE/L	.	.	.	.	.	.	.	.	.	.	.	.
16GG#X/	.	.	8r	.	8r	.	8r	.	8r	.	.	.
16BB/JJ	.	.	.	.	.	.	.	.	.	.	.	.
!	!	!	!LO:LB:g=original	!	!	!	!	!	!	!	!LO:LB:g=original	!
=93	=93	=93	=93	=93	=93	=93	=93	=93	=93	=93	=93	=93
8E\L	.	X 5 #	4.r	.	16bb\LL	.	4.r	.	8r	.	8r	8r
.	.	.	.	.	16ee\	.	.	.	.	.	.	.
8E\	.	.	.	.	16bb\	.	.	.	8b\	qui	8ee\L	8ee\L
.	.	.	.	.	16ee\	.	.	.	.	.	.	.
8E\J	.	X 6 4	.	.	16ccc#\	.	.	.	8cc#\	cum	8ee\J	8ee\J
.	.	.	.	.	16ee\JJ	.	.	.	.	.	.	.
!	!	!	!	!	!	!	!	!	!LO:LB:g=original	!	!	!LO:LB:g=original
=94	=94	=94	=94	=94	=94	=94	=94	=94	=94	=94	=94	=94
[4.E\	.	X 5 #	16b/LL	.	16gg#X\LL	.	8r	.	4g#X\	Pa-	4.ee\	4.ee\
.	.	.	16e/	.	16ee\	.	.	.	.	.	.	.
.	.	X 6 4	16b/	.	16gg#\	.	8B\	qvi	.	.	.	.
.	.	.	16e/	.	16ee\	.	.	.	.	.	.	.
.	.	.	16cc#/	.	16aa\	.	8c#\	cum	8a\	-tre	.	.
.	.	.	16e/JJ	.	16ee\JJ	.	.	.	.	.	.	.
=95	=95	=95	=95	=95	=95	=95	=95	=95	=95	=95	=95	=95
*	*	*	*	*	*	*	*	*	*	*ij	*	*
4.E\_	.	X 5 #	16g#X/LL	.	16bb\LL	.	4G#X\	Pa-	8b\	Pa-	8r	8r
.	.	.	16e/	.	16ee\	.	.	.	.	.	.	.
.	.	X 6 4	16g#/	.	16bb\	.	.	.	8b\	-tre	8ee\L	8ee\L
*	*	*	*	*	*	*	*	*	*	*Xij	*	*
.	.	.	16e/	.	16ee\	.	.	.	.	.	.	.
.	.	.	16a/	.	16ccc#\	.	8A\	-tre	8cc#\	et	8ee\J	8ee\J
.	.	.	16e/JJ	.	16ee\JJ	.	.	.	.	.	.	.
!	!	!	!	!	!	!	!LO:LB:g=original	!	!	!	!	!
=96	=96	=96	=96	=96	=96	=96	=96	=96	=96	=96	=96	=96
4.E\]	.	X 5 #	16b/LL	.	16gg#X\LL	.	8B\	et	8.g#X\	Fi-	4.ee\	4.ee\
.	.	.	16e/	.	16ee\	.	.	.	.	.	.	.
.	.	X 6 4	16b/	.	16gg#\	.	16B\	Fi-	.	.	.	.
.	.	.	16e/	.	16ee\	.	16B\	-li-	16g#\	-li-	.	.
.	.	.	16cc#/	.	16aa\	.	8c#\	-o	8a\	-o	.	.
.	.	.	16e/JJ	.	16ee\JJ	.	.	.	.	.	.	.
=97	=97	=97	=97	=97	=97	=97	=97	=97	=97	=97	=97	=97
16D\LL	.	.	8.a\L	.	16ff#\LL	.	16d\	si-	16ff#\	si-	16dd\LL	16ff#\LL
16C#\	.	.	.	.	16ee\	.	16d\	-mul	16ff#\	-mul	16a\	16ee\
16D\	.	.	.	.	16ff#\	.	8d\	a-	8ff#\	a-	16dd\	16ff#\
16E\	.	.	16a\L	.	16gg#X\	.	.	.	.	.	16ee\	16gg#X\
16F#\	.	X X 6	16dd\	.	16aa\	.	8d\	-do-	8ff#\	-do-	16ff#\	16aa\
16G#X\JJ	.	.	16b\JJ	.	16bb\JJ	.	.	.	.	.	16gg#X\JJ	16bb\JJ
!	!	!	!	!	!LO:LB:g=original	!	!	!	!	!	!	!
=98	=98	=98	=98	=98	=98	=98	=98	=98	=98	=98	=98	=98
16A\LL	.	.	16cc#\LL	.	8.ee\L	.	4c#\	-ra-	4ee\	-ra-	4ee\	4aa\
16G#X\	.	.	16b\	.	.	.	.	.	.	.	.	.
16A\	.	.	16cc#\	.	.	.	.	.	.	.	.	.
16B\	.	.	16dd\	.	16ee\L	.	.	.	.	.	.	.
16c#\	.	X X 6	16ee\	.	16aa\	.	8c#\	-tur	8ee\	-tur,	8r	8r
16A\JJ	.	.	16cc#\JJ	.	16ggn\JJ	.	.	.	.	.	.	.
=99	=99	=99	=99	=99	=99	=99	=99	=99	=99	=99	=99	=99
16D\LL	.	.	8.a\L	.	16ff#\LL	.	8d\	et	8ff#\	et	16dd\LL	16ff#\LL
16C#\	.	.	.	.	16ee\	.	.	.	.	.	16a\	16ee\
16D\	.	.	.	.	16ff#\	.	16d\	con-	16ff#\	con-	16dd\	16ff#\
16E\	.	.	16a\L	.	16gg#X\	.	16d\	-glo-	16ff#\	-glo-	16ee\	16gg#X\
16F#\	.	X X 6	16dd\	.	16aa\	.	16d\	-ri-	16ff#\	-ri-	16ff#\	16aa\
16G#X\JJ	.	.	16b\JJ	.	16bb\JJ	.	16d\	-fi-	16ff#\	-fi-	16gg#X\JJ	16bb\JJ
=100	=100	=100	=100	=100	=100	=100	=100	=100	=100	=100	=100	=100
8.AA/L	.	.	8.a/L	.	8.cc#\L	.	8.c#\L	-ca-	8.ee\L	-ca-	4.aa\	[4.aa\
16BB/K	.	.	16a/K	.	16dd\K	.	16B\K	.	16dd\K	.	.	.
[8C#/J	.	X X 6	[8a/J	.	[8ee\J	.	[8A\J	.	[8cc#\J	.	.	.
=101	=101	=101	=101	=101	=101	=101	=101	=101	=101	=101	=101	=101
16C#/LL]	.	.	16a/LL]	.	16ee\LL]	.	16A\LL]	.	16cc#\LL]	.	16a\LL	8aa\]
16D/JJ	.	.	16f#/JJ	.	16ff#\JJ	.	16F#\JJ	.	16b\JJ	.	16dd\JJ	.
!LO:TX:t=P:problem=mixed beam	!	!	!	!	!	!	!	!	!	!	!	!
8E\L	.	X X #	4g#X/	.	8.bT\L	.	4G#Xt\	.	4bT\	.	4eeT\	4gg#Xt\
8EE/J	.	.	.	.	.	.	.	.	.	.	.	.
.	.	.	.	.	16ee\Jk	.	.	.	.	.	.	.
!LO:LB:g=original	!	!	!	!	!	!	!	!	!	!	!	!
=102	=102	=102	=102	=102	=102	=102	=102	=102	=102	=102	=102	=102
16AA/LL	.	.	4a/	.	4cc#\	.	8A\	-tur	4a\	-tur	4ee\	4aa\
!LO:TX:b:i:t=Solo	!	!	!	!	!	!	!	!	!	!	!	!
16GG/	.	.	.	.	.	.	.	.	.	.	.	.
16AA/	.	.	.	.	.	.	8A\	qvi	.	.	.	.
16BB/	.	.	.	.	.	.	.	.	.	.	.	.
16C#/	.	X X 6	8r	.	8r	.	8A\	lo-	8r	.	8r	8r
16AA/JJ	.	.	.	.	.	.	.	.	.	.	.	.
=103	=103	=103	=103	=103	=103	=103	=103	=103	=103	=103	=103	=103
16D\LL	.	.	2.r	.	1.r	.	8.A\	-cu-	2.r	.	2.r	2.r
16C#\	.	.	.	.	.	.	.	.	.	.	.	.
16D\	.	.	.	.	.	.	.	.	.	.	.	.
16E\	.	.	.	.	.	.	16A\	-tus	.	.	.	.
16F#\	.	X X 6	.	.	.	.	8A\	est	.	.	.	.
16D\JJ	.	.	.	.	.	.	.	.	.	.	.	.
=104	=104	=104	=104	=104	=104	=104	=104	=104	=104	=104	=104	=104
!	!	!	!	!	!	!	!	!	!LO:TX:a:t=3	!	!	!
16C#/LL	.	X X 6	.	.	.	.	8r	.	.	.	.	.
16BB/	.	.	.	.	.	.	.	.	.	.	.	.
16AA/	.	.	.	.	.	.	8A\	per	.	.	.	.
16BB/	.	.	.	.	.	.	.	.	.	.	.	.
16C#/	.	.	.	.	.	.	8A\	Pro-	.	.	.	.
16AA/JJ	.	.	.	.	.	.	.	.	.	.	.	.
=105	=105	=105	=105	=105	=105	=105	=105	=105	=105	=105	=105	=105
16D\LL	.	.	4.r	.	.	.	8F#\	-phe-	4.r	.	4.r	4.r
16E\	.	.	.	.	.	.	.	.	.	.	.	.
16F#\	.	.	.	.	.	.	8D\	-tas.	.	.	.	.
16G\	.	.	.	.	.	.	.	.	.	.	.	.
16F#\	.	.	.	.	.	.	8r	.	.	.	.	.
16E\JJ	.	.	.	.	.	.	.	.	.	.	.	.
!	!	!	!LO:LB:g=original	!	!	!	!LO:LB:g=original	!	!LO:LB:g=original	!	!LO:TX:b:i:t=V&colon; S&colon;	!LO:TX:b:i:t=V&colon; S&colon;
!	!	!	!	!	!	!	!	!	!	!	!LO:PB:g=original	!LO:PB:g=original
=106	=106	=106	=106	=106	=106	=106	=106	=106	=106	=106	=106	=106
!LO:TX:b:i:t=Tut&colon;	!	!	!	!	!	!	!	!	!	!	!	!
4D\	.	.	16r	.	.	.	4.r	.	16r	.	8d/	8d/
.	.	.	16d/LL	.	.	.	.	.	16d/	et	.	.
.	.	.	16e/	.	.	.	.	.	16e/	u-	8r	8r
.	.	.	16f#/	.	.	.	.	.	16f#/	-nam	.	.
8r	.	.	16g/	.	.	.	.	.	16g\	Sanc-	8r	8r
.	.	.	16a/JJ	.	.	.	.	.	16a\	-tam	.	.
=107	=107	=107	=107	=107	=107	=107	=107	=107	=107	=107	=107	=107
16r	.	.	16b/LL	.	4.r	.	16r	.	16b\LL	Ca-	8d/	8d/
16D\LL	.	X X 3	16f#/	.	.	.	16D\	Et	16f#\	.	.	.
16E\	.	X X 3	16g/	.	.	.	16E\	u-	16g\	.	8r	8r
16F#\	.	X X 3	16a/	.	.	.	16F#\	-nam	16a\	.	.	.
16G\	.	X X 3	16b/	.	.	.	16G\	Sanc-	16b\	.	8r	8r
16A\JJ	.	X X 3	16cc#/JJ	.	.	.	16A\	-tam	16cc#\JJ	.	.	.
=108	=108	=108	=108	=108	=108	=108	=108	=108	=108	=108	=108	=108
16B\LL	.	X X 3	16dd\LL	.	16r	.	(16B\LL	Ca-	16dd\LL	.	8d/	8d/
16F#\	.	X X 6	16a\	.	16dd\LL	.	16F#\JJ)	.	16a\	.	.	.
16G\	.	X X 6	16b\	.	16ee\	.	16G\LL	.	16b\	.	8r	8r
16A\	.	X X 6	16cc#\	.	16ff#\	.	16A\	.	16cc#\	.	.	.
16B\	.	X X 6	16dd\	.	16gg\	.	16B\	.	16dd\	.	8r	8r
16c#\JJ	.	X X 6	16ee\JJ	.	16aa\JJ	.	16c#\JJ	.	16ee\JJ	.	.	.
=109	=109	=109	=109	=109	=109	=109	=109	=109	=109	=109	=109	=109
!	!	!	!LO:TX:t=P:problem=mixed beam	!	!LO:TX:t=P:problem=mixed beam	!	!	!	!	!	!	!
8.d\L	.	.	32ff#\LLL	.	32aa\LLL	.	8.d\	-tho-	8.ff#\	-tho-	8d/	8d/
.	.	.	32f#/	.	32a/	.	.	.	.	.	.	.
.	.	.	32g/	.	32b/	.	.	.	.	.	.	.
.	.	.	32a/JJJ	.	32cc#/JJJ	.	.	.	.	.	.	.
.	.	.	16b\LL	.	16dd\LL	.	.	.	.	.	8r	8r
16d\K	.	.	16cc#\	.	16ee\	.	16d\	-li-	16ff#\	-li-	.	.
8d\J	.	.	16dd\	.	16ff#\	.	8d\	-cam	8ff#\	-cam	8r	8r
.	.	.	16ee\JJ	.	16gg\JJ	.	.	.	.	.	.	.
=110	=110	=110	=110	=110	=110	=110	=110	=110	=110	=110	=110	=110
!	!	!	!LO:TX:t=P:problem=mixed beam	!	!	!	!	!	!	!	!	!
4D\	.	.	16ff#\LL	.	4aa\	.	4.r	.	16r	.	8d/	8d/
.	.	.	16d/	.	.	.	.	.	16d/	et	.	.
.	.	.	16e/	.	.	.	.	.	16e/LL	A-	8r	8r
.	.	.	16f#/	.	.	.	.	.	16f#/	.	.	.
8r	.	.	16g/	.	8r	.	.	.	16g/	.	8r	8r
.	.	.	16a/JJ	.	.	.	.	.	16a/JJ	.	.	.
=111	=111	=111	=111	=111	=111	=111	=111	=111	=111	=111	=111	=111
16r	.	.	16b/LL	.	4.r	.	16r	.	(16b\LL	-pos-	8d/	8d/
16D\LL	.	X X 3	16f#/	.	.	.	16D\	et	16f#\JJ)	.	.	.
16E\	.	X X 3	16g/	.	.	.	16E\LL	A-	16g\LL	-to-	8r	8r
16F#\	.	X X 3	16a/	.	.	.	16F#\	.	16a\	.	.	.
16G\	.	X X 3	16b/	.	.	.	16G\	.	16b\	.	8r	8r
16A\JJ	.	X X 3	16cc#/JJ	.	.	.	16A\JJ	.	16cc#\JJ	.	.	.
=112	=112	=112	=112	=112	=112	=112	=112	=112	=112	=112	=112	=112
16B\LL	.	X X 3	16dd\LL	.	16r	.	(16B\LL	-po-	(16dd\LL	.	8d/	8d/
16F#\	.	X X 6	16a\	.	16dd\LL	.	16F#\JJ)	.	16a\JJ)	.	.	.
16G\	.	X X 6	16b\	.	16ee\	.	16G\	-sto-	16b\LL	-li-	8r	8r
16A\	.	X X 6	16cc#\	.	16ff#\	.	16A\	-li-	16cc#\JJ	.	.	.
16B\	.	X X 6	16dd\	.	16gg\	.	16B\	-cam	16dd\	-cam	8r	8r
16c#\JJ	.	X X 6	16ee\JJ	.	16aa\JJ	.	16c#\	Ec-	16ee\	Ec-	.	.
!	!	!	!	!	!LO:LB:g=original	!	!	!	!	!	!	!
=113	=113	=113	=113	=113	=113	=113	=113	=113	=113	=113	=113	=113
!	!	!	!LO:TX:t=P:problem=mixed beam	!	!LO:TX:t=P:problem=mixed beam	!	!	!	!	!	!	!
8.d\L	.	.	32ff#\LLL	.	32aa\LLL	.	8.d\	-cle-	8.ff#\	-cle-	8d/	8d/
.	.	.	32f#/	.	32a/	.	.	.	.	.	.	.
.	.	.	32g/	.	32b/	.	.	.	.	.	.	.
.	.	.	32a/JJJ	.	32cc#/JJJ	.	.	.	.	.	.	.
.	.	.	16b\LL	.	16dd\LL	.	.	.	.	.	8r	8r
16d\K	.	.	16cc#\	.	16ee\	.	16d\	-si-	16ff#\	-si-	.	.
8d\J	.	.	16dd\	.	16ff#\	.	8d\	-am	8ff#\	-am	8r	8r
.	.	.	16ee\JJ	.	16gg\JJ	.	.	.	.	.	.	.
!	!	!	!LO:LB:g=original	!	!	!	!	!	!LO:LB:g=original	!	!	!
=114	=114	=114	=114	=114	=114	=114	=114	=114	=114	=114	=114	=114
4.r	.	.	8dd\L	.	8ff#\L	.	4.r	.	8dd\	Con-	8ff#\L	8ff#\L
.	.	.	8dd\	.	8ff#\	.	.	.	8dd\	-fi-	8ff#\	8ff#\
.	.	.	16cc#\L	.	16ee\L	.	.	.	16cc#\	-te-	16ee\L	16ee\L
.	.	.	16dd\JJ	.	16ff#\JJ	.	.	.	16dd\	-or	16ff#\JJ	16ff#\JJ
!LO:LB:g=original	!	!	!	!	!	!	!LO:LB:g=original	!	!	!	!	!
=115	=115	=115	=115	=115	=115	=115	=115	=115	=115	=115	=115	=115
.	.	.	.	.	8qqee/	.	.	.	.	.	.	.
8G\L	.	.	4b\	.	4dd\	.	8G\	Con-	4b\	u-	4dd\	4dd\
8G\	.	.	.	.	.	.	8G\	-fi-	.	.	.	.
16F#\L	.	.	8b\	.	8dd\	.	16F#\	-te-	8b\	-num	8dd\	8dd\
16G\JJ	.	.	.	.	.	.	16G\	-or	.	.	.	.
=116	=116	=116	=116	=116	=116	=116	=116	=116	=116	=116	=116	=116
*	*	*	*	*	*	*	*	*	*	*ij	*	*
4E\	.	.	8ee\L	.	8gg\L	.	4E\	u-	8ee\	u-	8gg\L	8gg\L
.	.	.	8ee\	.	8gg\	.	.	.	8ee\	-num	8gg\	8gg\
*	*	*	*	*	*	*	*	*	*	*Xij	*	*
8E\	.	.	16dd\L	.	16ff#\L	.	8E\	-num	(16dd\LL	Bap-	16ff#\L	16ff#\L
.	.	.	16ee\JJ	.	16gg\JJ	.	.	.	16ee\JJ)	.	16gg\JJ	16gg\JJ
=117	=117	=117	=117	=117	=117	=117	=117	=117	=117	=117	=117	=117
.	.	.	.	.	8qqff#/	.	.	.	.	.	.	.
*	*	*	*	*	*	*	*	*ij	*	*	*	*
!	!	!	!LO:N:vis=4.	!	!	!	!	!	!	!	!	!
8A\L	.	.	4cc#\	.	4ee\	.	8A\	u-	4cc#\	-tis-	4ee\	4ee\
8A\	.	.	.	.	.	.	8A\	-num	.	.	.	.
*	*	*	*	*	*	*	*	*Xij	*	*	*	*
16G\L	.	.	8cc#\	.	8ee\	.	(16G\LL	bap-	8cc#\	-ma	8ee\	8ee\
16A\JJ	.	.	.	.	.	.	16A\JJ)	.	.	.	.	.
=118	=118	=118	=118	=118	=118	=118	=118	=118	=118	=118	=118	=118
4F#\	.	.	8ff#\L	.	8aa\L	.	4F#\	-tis-	16ff#\	in	8aa\L	8aa\L
.	.	.	.	.	.	.	.	.	16ff#\	re-	.	.
.	.	.	8ff#\	.	8aa\	.	.	.	8ff#\	-miſ-	8aa\	8aa\
8F#\	.	.	16ee\L	.	16gg\L	.	8F#\	-ma	(16ee\LL	-si-	16gg\L	16gg\L
.	.	.	16ff#\JJ	.	16aa\JJ	.	.	.	16ff#\JJ)	.	16aa\JJ	16aa\JJ
!	!	!	!	!	!	!	!	!	!	!	!	!LO:LB:g=original
=119	=119	=119	=119	=119	=119	=119	=119	=119	=119	=119	=119	=119
.	.	.	8qqee/	.	8qqgg/	.	.	.	.	.	8qqgg/	8qqgg/
8B\L	.	.	4dd\	.	4ff#\	.	16B\	in	4dd\	-o-	4ff#\	4ff#\
.	.	.	.	.	.	.	16B\	re-	.	.	.	.
8B\	.	.	.	.	.	.	8B\	-miſ-	.	.	.	.
16A\L	.	.	8dd\	.	8ff#\	.	(16A\LL	-si-	8dd\	-nem	8ff#\	8ff#\
16B\JJ	.	.	.	.	.	.	16B\JJ)	.	.	.	.	.
!	!	!	!	!	!	!	!	!	!	!	!LO:LB:g=original	!
=120	=120	=120	=120	=120	=120	=120	=120	=120	=120	=120	=120	=120
4G#X\	.	X 6 5	8dd\L	.	8bb\L	.	8.G\	-o-	4ee\	pec-	4.ee\	4.bb\
.	.	.	8dd\	.	8bb\	.	.	.	.	.	.	.
.	.	.	.	.	.	.	16G\	-nem	.	.	.	.
8G#\	.	.	16cc#\L	.	16aa\L	.	16G\	pec-	8ee\	-ca-	.	.
.	.	.	16dd\JJ	.	16bb\JJ	.	16G\	-ca-	.	.	.	.
=121	=121	=121	=121	=121	=121	=121	=121	=121	=121	=121	=121	=121
!LO:TX:t=P:problem=mixed beam	!	!	!	!	!	!	!	!	!	!	!	!
8A\L	.	.	8cc#\L	.	8ee\L|	.	8A\	-to-	8cc#\	-to-	8ee\L	8aa\L
8AA/J	.	.	8cc#\J	.	8ee\J|	.	8AA/	-rum	8cc#\	-rum.	8ee\J	8aa\J
!	!	!	!	!	!	!	!	!	!	!	!LO:TX:b:i:t=Et expecto Tacet.	!LO:TX:b:i:t=Et expecto Tacet.
8r	.	.	8r	.	8r	.	8r	.	8r	.	8r	8r
!	!	!	!	!	!	!	!	!	!LO:LB:g=original	!	!	!
=122||	=122||	=122||	=122||	=122||	=122||	=122||	=122||	=122||	=122||	=122||	=122||	=122||
*M4/4	*	*	*M4/4	*	*M4/4	*	*M4/4	*	*M4/4	*	*M4/4	*M4/4
*met(c)	*	*	*met(c)	*	*met(c)	*	*met(c)	*	*met(c)	*	*met(c)	*met(c)
!	!LO:DY:b:t=p&colon;	!	!LO:TX:b:i:t=Adagio pia&colon;	!	!LO:TX:b:i:t=Adagio et piano.	!	!LO:TX:a:i:t=Adagio	!	!LO:TX:a:i:t=Adagio	!	!	!
8r	p	.	(16dd\LL|	.	(16ff#\LL|	.	0r	.	4.ff#\	Et	1ryy	1ryy
.	.	.	16dd'\	.	16ff#'\	.	.	.	.	.	.	.
!LO:TX:a:i:t=adag&colon; Solo	!	!	!	!	!	!	!	!	!	!	!	!
8D\L|	.	.	16dd'\	.	16ff#'\	.	.	.	.	.	.	.
.	.	.	16dd'\JJ	.	16ff#'\JJ	.	.	.	.	.	.	.
8F#\|	.	.	16dd'\LL	.	16ff#'\LL	.	.	.	.	.	.	.
.	.	.	16dd'\	.	16ff#'\	.	.	.	.	.	.	.
8D\J|	.	.	16dd'\	.	16ff#'\	.	.	.	8ff#\	ex-	.	.
.	.	.	16dd'\JJ)	.	16ff#'\JJ)	.	.	.	.	.	.	.
!	!	!	!	!	!LO:LB:g=original	!	!	!	!	!	!	!
8r	.	.	(16cc#\LL|	.	(16ee\LL|	.	.	.	4ee\	-pec-	.	.
.	.	.	16cc#'\	.	16ee'\	.	.	.	.	.	.	.
8A\L|	.	.	16cc#'\	.	16ee'\	.	.	.	.	.	.	.
.	.	.	16cc#'\JJ	.	16ee'\JJ	.	.	.	.	.	.	.
8c#\|	.	.	16cc#'\LL	.	16ee'\LL	.	.	.	4aa\	-to	.	.
.	.	.	16cc#'\	.	16ee'\	.	.	.	.	.	.	.
8A\J|	.	.	16cc#'\	.	16ee'\	.	.	.	.	.	.	.
.	.	.	16cc#'\JJ)	.	16ee'\JJ)	.	.	.	.	.	.	.
!	!	!	!LO:LB:g=original	!	!	!	!	!	!	!	!	!
=123	=123	=123	=123	=123	=123	=123	=123	=123	=123	=123	=123	=123
*	*	*	*	*	*	*	*	*	*	*ij	*	*
8r	.	.	(16b\LL|	.	(16dd\LL|	.	.	.	4.dd\	et	1ryy	1ryy
.	.	.	16b'\	.	16dd'\	.	.	.	.	.	.	.
8B\L|	.	.	16b'\	.	16dd'\	.	.	.	.	.	.	.
.	.	.	16b'\JJ	.	16dd'\JJ	.	.	.	.	.	.	.
8d\|	.	.	16b'\LL	.	16dd'\LL	.	.	.	.	.	.	.
.	.	.	16b'\	.	16dd'\	.	.	.	.	.	.	.
8B\J|	.	.	16b'\	.	16dd'\	.	.	.	8dd\	ex-	.	.
.	.	.	16b'\JJ)	.	16dd'\JJ)	.	.	.	.	.	.	.
8r	.	.	(16a\LL|	.	(16cc#\LL|	.	.	.	4cc#\	-pec-	.	.
.	.	.	16a'\	.	16cc#'\	.	.	.	.	.	.	.
8F#\L|	.	.	16a'\	.	16cc#'\	.	.	.	.	.	.	.
.	.	.	16a'\JJ	.	16cc#'\JJ	.	.	.	.	.	.	.
8A\|	.	.	16a'\LL	.	16cc#'\LL	.	.	.	4ff#\	-to	.	.
*	*	*	*	*	*	*	*	*	*	*Xij	*	*
.	.	.	16a'\	.	16cc#'\	.	.	.	.	.	.	.
8F#\J|	.	.	16a'\	.	16cc#'\	.	.	.	.	.	.	.
.	.	.	16a'\JJ)	.	16cc#'\JJ)	.	.	.	.	.	.	.
=124	=124	=124	=124	=124	=124	=124	=124	=124	=124	=124	=124	=124
8r	.	.	(16g/LL|	.	(16b\LL|	.	1r	.	8.b\	re-	1ryy	1ryy
.	.	.	16g'/	.	16b'\	.	.	.	.	.	.	.
8G\L|	.	.	16g'/	.	16b'\	.	.	.	.	.	.	.
.	.	.	16g'/JJ	.	16b'\JJ	.	.	.	16b\	-sur-	.	.
8B\|	.	.	16g'/LL	.	16b'\LL	.	.	.	8b\	-rec-	.	.
.	.	.	16g'/	.	16b'\	.	.	.	.	.	.	.
8G\J|	.	.	16g'/	.	16b'\	.	.	.	8b\	-ti-	.	.
.	.	.	16g'/JJ)	.	16b'\JJ)	.	.	.	.	.	.	.
8r	.	.	(16f#/LL|	.	(16a\LL|	.	.	.	4a\	-o-	.	.
.	.	.	16f#'/	.	16a'\	.	.	.	.	.	.	.
8D\L|	.	.	16f#'/	.	16a'\	.	.	.	.	.	.	.
.	.	.	16f#'/JJ	.	16a'\JJ	.	.	.	.	.	.	.
8F#\|	.	.	16f#'/LL	.	16a'\LL	.	.	.	4dd\	-nem	.	.
.	.	.	16f#'/	.	16a'\	.	.	.	.	.	.	.
8D\J|	.	.	16f#'/	.	16a'\	.	.	.	.	.	.	.
.	.	.	16f#'/JJ)	.	16a'\JJ)	.	.	.	.	.	.	.
!LO:LB:g=original	!	!	!	!	!	!	!LO:LB:g=original	!	!	!	!	!
=125	=125	=125	=125	=125	=125	=125	=125	=125	=125	=125	=125	=125
*	*	*reverse	*	*	*	*	*	*	*	*	*	*
!	!	!	!	!LO:DY:b:t=for&colon;	!	!LO:DY:b:t=for&colon;	!	!	!	!	!	!
4.GG#X/	.	X 7n 5	4.dd\	f	4.ffn\	f	4.G#X\	mor-	4.ffn\	mor-	1ryy	1ryy
*	*	*Xreverse	*	*	*	*	*	*	*	*	*	*
8GG#/	.	.	8dd\	.	8ff\	.	8G#\	-tu-	8ff\	-tu-	.	.
4GGn/	.	.	4ccn\	.	4ee-X\	.	[2Gn\	-o-	(4ee-X\	-o-	.	.
[4G\	.	.	[4b-X\	.	4dd\	.	.	.	4dd\)	.	.	.
=126	=126	=126	=126	=126	=126	=126	=126	=126	=126	=126	=126	=126
4G\]	.	.	4b-\]	.	4cc#X\	.	4G\]	.	(4cc#X\	.	1ryy	1ryy
4Fn\	.	.	2a/	.	4dd\	.	4Fn\	.	2dd\)	.	.	.
2BB-X/	.	.	.	.	2ddT\	.	2BB-X/	.	.	.	.	.
.	.	.	4g#Xt/	.	.	.	.	.	4g#X\	.	.	.
=127	=127	=127	=127	=127	=127	=127	=127	=127	=127	=127	=127	=127
1AA	.	.	1a	.	1cc#	.	1AA	-rum.	1a	-rum.	1ryy	1ryy
*clefC1	*	*	*	*	*	*	*	*	*	*	*	*
!	!	!	!	!	!LO:LB:g=original	!	!	!	!LO:LB:g=original	!	!LO:LB:g=original	!LO:LB:g=original
=128||	=128||	=128||	=128||	=128||	=128||	=128||	=128||	=128||	=128||	=128||	=128||	=128||
*M2/2	*	*	*M2/2	*	*M2/2	*	*M2/2	*	*M2/2	*	*M2/2	*M2/2
*met(c|)	*	*	*met(c|)	*	*met(c|)	*	*met(c|)	*	*met(c|)	*	*met(c|)	*met(c|)
!	!	!	!	!	!	!	!	!	!	!	!LO:TX:b:i:t=Et vitam.	!LO:TX:b:i:t=Et vitam.
!	!	!	!	!	!	!	!	!	!	!	!	!LO:TX:a:t=10
!LO:TX:a:i:t=allo&colon; T&colon;	!	!	!LO:TX:b:i:t=Allo&colon;	!	!LO:TX:b:i:t=allo aſsai	!	!LO:TX:a:i:t=allo&colon; aſsai	!	!	!	!LO:TX:a:i:t=allo&colon;	!LO:TX:a:i:t=allo&colon;
!	!	!	!	!	!	!	!LO:TX:b:i:t=10.	!	!LO:TX:a:i:t=Allo&colon;	!	!	!
4r	.	.	00r	.	4r	.	00r	.	4r	.	00r	00r
4dd\|	.	.	.	.	4dd\|	.	.	.	4dd\	Et	.	.
4cc#\|	.	.	.	.	4cc#\|	.	.	.	(4cc#\	vi-	.	.
4b\|	.	.	.	.	4b\|	.	.	.	4b\)	.	.	.
=129	=129	=129	=129	=129	=129	=129	=129	=129	=129	=129	=129	=129
4a\|	.	.	.	.	4a/|	.	.	.	4a,\	-tam	.	.
4g\|	.	.	.	.	4g/|	.	.	.	4g/	ven-	.	.
4f#/|	.	.	.	.	4f#/|	.	.	.	(>4f#/	-tu-	.	.
4e/|	.	.	.	.	4e/|	.	.	.	4e/)	.	.	.
=130	=130	=130	=130	=130	=130	=130	=130	=130	=130	=130	=130	=130
4d/|	.	.	.	.	4d/|	.	.	.	4d,</	-ri	.	.
4dd\|	.	.	.	.	4dd\|	.	.	.	4dd\	et	.	.
4cc#\|	.	.	.	.	4cc#\|	.	.	.	(4cc#\	vi-	.	.
4b\|	.	.	.	.	4b\|	.	.	.	4b\)	.	.	.
=131	=131	=131	=131	=131	=131	=131	=131	=131	=131	=131	=131	=131
4a\|	.	.	.	.	4a/|	.	.	.	4a,\	-ta(m)	.	.
4g\|	.	.	.	.	4g/|	.	.	.	4g/	ven-	.	.
4f#\|	.	.	.	.	4f#/|	.	.	.	(4f#/	-tu-	.	.
4e/|	.	.	.	.	4e/|	.	.	.	4e/)	.	.	.
=132	=132	=132	=132	=132	=132	=132	=132	=132	=132	=132	=132	=132
4d/	.	.	1r	.	4d/	.	00r	.	4d/	-ri	00r	00r
4d/	.	.	.	.	4d/	.	.	.	8d/	sae-	.	.
.	.	.	.	.	.	.	.	.	8d,</	-cu-	.	.
4f#/	.	.	.	.	4f#/	.	.	.	(4f#/	-li	.	.
4g#X/	.	.	.	.	4g#X/	.	.	.	4g#X/)	a-	.	.
=133	=133	=133	=133	=133	=133	=133	=133	=133	=133	=133	=133	=133
*^	*	*	*	*	*	*	*	*	*	*	*	*
4a/	4cc#\yy	.	.	4r	.	4a/	.	.	.	4a,\	-men	.	.
*clefC3	*	*	*	*	*	*	*	*	*	*	*	*	*
4cc#/	4a\	.	.	4a/	.	4cc#/	.	.	.	2ee\	a-	.	.
4b/	4g#X\	.	.	4g#X/	.	4b/	.	.	.	.	.	.	.
!LO:TX:b:i:t=Volti subito	!	!	!	!	!	!	!	!	!	!	!	!	!
4a/	4f#\	.	.	4f#/	.	4a/	.	.	.	[4ee\	.	.	.
!LO:PB:g=original	!LO:PB:g=original	!	!	!LO:LB:g=original	!	!	!	!	!	!	!	!	!
=134	=134	=134	=134	=134	=134	=134	=134	=134	=134	=134	=134	=134	=134
4g#X/	4e\	.	.	4e/	.	4g#X/	.	.	.	4ee\]	.	.	.
4f#/	4d\	.	.	4d/	.	4f#/	.	.	.	2ee\	.	.	.
4e/	4c#\	.	.	4c#/	.	4e/	.	.	.	.	.	.	.
4d/	4B\	.	.	4B/	.	4d/	.	.	.	8ff#\L	.	.	.
.	.	.	.	.	.	.	.	.	.	8gg#X\J	.	.	.
=135	=135	=135	=135	=135	=135	=135	=135	=135	=135	=135	=135	=135	=135
4c#/	4A\	.	.	4A/	.	4c#/	.	.	.	4aa,\	-men	.	.
4cc#/	4a\	.	.	4a/	.	4cc#\	.	.	.	2ee\	a-	.	.
4b/	4g#X\	.	.	4g#X/	.	4b\	.	.	.	.	.	.	.
4a/	4f#\	.	.	4f#/	.	4a\	.	.	.	[4ee\	.	.	.
=136	=136	=136	=136	=136	=136	=136	=136	=136	=136	=136	=136	=136	=136
4g#X/	4e\	.	.	4e/	.	4g#X/	.	0r	.	4ee\]	.	0r	0r
4f#X/	4d\	.	.	4d/	.	4f#/	.	.	.	2ee\	.	.	.
4e/	4c#\	.	.	4c#/	.	4e/	.	.	.	.	.	.	.
4d/	4B\	.	.	4B/	.	4d/	.	.	.	8ff#\L	.	.	.
.	.	.	.	.	.	.	.	.	.	8gg#X\J	.	.	.
!	!	!	!	!	!	!	!	!	!	!LO:LB:g=original	!	!	!
=137	=137	=137	=137	=137	=137	=137	=137	=137	=137	=137	=137	=137	=137
4c#/	4A\	.	.	4A/	.	4c#/	.	.	.	2aa,\	-men	.	.
4c#/	4A\	.	.	4A/	.	4c#/	.	.	.	.	.	.	.
4d/	4B\	.	.	4B/	.	4d/	.	.	.	2ggn\	a-	.	.
4e/	4c#\	.	.	4c#/	.	4e/	.	.	.	.	.	.	.
=138	=138	=138	=138	=138	=138	=138	=138	=138	=138	=138	=138	=138	=138
4f#/	4d\	.	.	4d/	.	4f#/	.	4r	.	4ff#,\	-men,	4r	4r
*clefF4	*	*	*	*	*	*	*	*	*	*	*	*	*2\right
4d\|	4rEEyy	.	.	4ff#\	.	2aa\	.	4d\	Et	4ff#\	et	4ff#\	2aa\
4c#\|	2rEEyy	.	.	4ee\	.	.	.	(4c#\	vi-	(4ee\	vi-	4ee\	.
4B\|	.	.	.	4dd\	.	[4aa\	.	4B\)	.	4dd\)	.	4dd\	[4aa\
*v	*v	*	*	*	*	*	*	*	*	*	*	*	*
=139	=139	=139	=139	=139	=139	=139	=139	=139	=139	=139	=139	=139
4A\|	.	.	4cc#\	.	4aa\]	.	4A\	-tam	4cc#,\	-tam	2a/	4aa\]
4G\|	.	.	4b\	.	2aa\	.	4G\	ven-	4b\	ven-	.	2aa\
4F#\|	.	.	4a/	.	.	.	(4F#\	-tu-	(4a\	-tu-	2r	.
4E\|	.	.	4gn/	.	8bb\L	.	4E\)	.	4g\)	.	.	8bb\L
.	.	.	.	.	8ccc#\J	.	.	.	.	.	.	8ccc#\J
=140	=140	=140	=140	=140	=140	=140	=140	=140	=140	=140	=140	=140
4D\	.	.	4f#/	.	4ddd\	.	4D\	-ri	4f#,</	-ri	4r	4ddd\
4d\	.	.	4ff#\	.	2aa\	.	4d\	et	4ff#\	et	4ff#\	2aa\
4c#\	.	.	4ee\	.	.	.	(4c#\	vi-	(4ee\	vi-	4ee\	.
4B\	.	.	4dd\	.	[4aa\	.	4B\)	.	4dd\)	.	4dd\	[4aa\
!	!	!	!	!	!LO:LB:g=original	!	!	!	!	!	!	!
=141	=141	=141	=141	=141	=141	=141	=141	=141	=141	=141	=141	=141
4A\	.	.	4cc#\	.	4aa\]	.	4A\	-tam	4cc#\	-tam	2a/	4aa\]
4G\	.	.	4b\	.	2aa\	.	4G\	ven-	4b\	ven-	.	2aa\
4F#\	.	.	4a/	.	.	.	(4F#\	-tu-	4a\	-tu-	2r	.
4E\	.	.	4g/	.	8bb\L	.	4E\)	.	4g\	-ri	.	8bb\L
.	.	.	.	.	8ccc#\J	.	.	.	.	.	.	8ccc#\J
=142	=142	=142	=142	=142	=142	=142	=142	=142	=142	=142	=142	=142
4D\	.	.	4f#/	.	2.ddd\	.	4D\	-ri	4f#/	sae-	2ff#\	2ddd\
4D\	.	.	4f#/	.	.	.	8D\	sae-	8f#/	-cu-	.	.
.	.	.	.	.	.	.	8D\	-cu-	8f#,</	-li	.	.
4F#\	.	X X 6	4a/	.	.	.	4F#\	-li	(4a\	a-	4r	4r
4G#X\	.	.	4b/	.	4ddd\	.	4G#X\	a-	4b\)	.	4ee\	4ee\
!	!	!	!	!	!	!	!LO:LB:g=original	!	!	!	!	!
=143	=143	=143	=143	=143	=143	=143	=143	=143	=143	=143	=143	=143
4A\	.	.	4e/	.	4ccc#\	.	4A\	-men	4cc#,<\	-men	4a/	4ee\
4A\	.	.	4cc#\	.	2ee\	.	4A\	et	2ee\	a-	2ee\	4ccc#\
4G#X\	.	.	4b\	.	.	.	(4G#X\	vi-	.	.	.	4bb\
4F#\	.	.	4a\	.	[4ee\	.	4F#\)	.	[4ee\	.	[4ee\	4aa\
!	!	!	!LO:LB:g=original	!	!	!	!	!	!	!	!	!
=144	=144	=144	=144	=144	=144	=144	=144	=144	=144	=144	=144	=144
.	.	.	.	.	.	.	.	.	.	.	.	8qqaa/
4E\	.	X X #	4g#X/	.	4ee\]	.	4E\	-tam	4ee\]	.	4ee\]	2gg#X\
4D\	.	.	4f#/	.	2ee\	.	4D\	ven-	2ee\	.	2ee\	.
4C#/	.	X X 6	4e/	.	.	.	(4C#/	-tu-	.	.	.	2r
4BB/	.	X X 6/	4d/	.	8ff#\L	.	4BB/)	.	8ff#\L	.	8ff#\L	.
.	.	.	.	.	8gg#X\J	.	.	.	8gg#X\J	.	8gg#X\J	.
!LO:LB:g=original	!	!	!	!	!	!	!	!	!	!	!	!
=145	=145	=145	=145	=145	=145	=145	=145	=145	=145	=145	=145	=145
4AA/	.	.	4c#/	.	4aa\	.	4AA/	-ri	4aa,\	-men	4aa\	4r
4A\	.	.	4cc#\	.	2ee\	.	4A\	et	2ee\	a-	2ee\	4ccc#\
4G#X\	.	X X 6	4b\	.	.	.	(4G#X\	vi-	.	.	.	4bb\
4F#\	.	X X 7	4a\	.	[4ee\	.	4F#\)	.	[4ee\	.	[4ee\	4aa\
=146	=146	=146	=146	=146	=146	=146	=146	=146	=146	=146	=146	=146
.	.	.	.	.	.	.	.	.	.	.	.	8qqaa/
4E\	.	X X #	4g#X/	.	4ee\]	.	4E\	-tam	4ee\]	.	4ee\]	2gg#X\
4D\	.	.	4f#/	.	2ee\	.	4D\	ven-	2ee\	.	2ee\	.
4C#/	.	X X 6	4e/	.	.	.	(4C#/	-tu-	.	.	.	2r
4BB/	.	X X 6/	4d/	.	8ff#\L	.	4BB/)	.	8ff#\L	.	8ff#\L	.
.	.	.	.	.	8gg#X\J	.	.	.	8gg#X\J	.	8gg#X\J	.
!	!	!	!	!	!	!	!	!	!LO:LB:g=original	!	!	!
=147	=147	=147	=147	=147	=147	=147	=147	=147	=147	=147	=147	=147
4AA/	.	.	4c#/	.	2aa\	.	4AA/	-ri	2aa,\	-men	2aa\	2r
4AA/	.	.	4c#/	.	.	.	8AA/	sae-	.	.	.	.
.	.	.	.	.	.	.	8AA/	-cu-	.	.	.	.
4BB/	.	X X 6	4d/	.	2ggnT\	.	4BB/	-li	2ggnT\	a-	2ggn\	2aa\
4C#/	.	X X 5	4e/	.	.	.	4C#/	a-	.	.	.	.
=148	=148	=148	=148	=148	=148	=148	=148	=148	=148	=148	=148	=148
*2\right	*	*	*	*	*	*	*	*	*	*	*	*
2D\	.	.	2A/	.	4ff#\	.	2D\	-men	2ff#,\	-men,	2ff#\	2aa\
.	.	.	.	.	4ff#\	.	.	.	.	.	.	.
[2d\	.	.	[2ff#\	.	4gg\	.	[2d\	a-	[2ff#\	a-	2r	2r
.	.	.	.	.	4aa\	.	.	.	.	.	.	.
!	!	!	!	!	!	!	!	!	!	!	!	!LO:LB:g=original
=149	=149	=149	=149	=149	=149	=149	=149	=149	=149	=149	=149	=149
!	!	!	!	!	!	!	!	!	!	!	!	!LO:TX:a:t=8.
4d\]	.	X X 6	4ff#\]	.	[1bb	.	4d\]	.	4ff#\]	.	00r	00r
4d\	.	.	4ff#\	.	.	.	4d\	.	4ff#\	.	.	.
4c#\	.	.	4ee\	.	.	.	4c#\	.	4ee\	.	.	.
4B\	.	.	4dd\	.	.	.	4B\	.	4dd\	.	.	.
=150	=150	=150	=150	=150	=150	=150	=150	=150	=150	=150	=150	=150
[1c#	.	X X 7	[1ee	.	4bb\]	.	[1c#	.	[1ee	.	.	.
.	.	.	.	.	4ee\	.	.	.	.	.	.	.
.	.	.	.	.	4ff#\	.	.	.	.	.	.	.
.	.	.	.	.	4gg\	.	.	.	.	.	.	.
=151	=151	=151	=151	=151	=151	=151	=151	=151	=151	=151	=151	=151
4c#\]	.	X X 6	4ee\]	.	[1aa	.	4c#\]	.	4ee\]	.	.	.
4c#\	.	.	4ee\	.	.	.	4c#\	.	4ee\	.	.	.
4B\	.	.	4dd\	.	.	.	4B\	.	4dd\	.	.	.
4A\	.	.	4cc#\	.	.	.	4A\	.	4cc#\	.	.	.
=152	=152	=152	=152	=152	=152	=152	=152	=152	=152	=152	=152	=152
[1B	.	X X 7	[1dd	.	4aa\]	.	[1B	.	[1dd	.	.	.
.	.	.	.	.	4dd\	.	.	.	.	.	.	.
.	.	.	.	.	4ee\	.	.	.	.	.	.	.
.	.	.	.	.	4ff#\	.	.	.	.	.	.	.
!	!	!	!	!	!	!	!LO:LB:g=original	!	!	!	!	!
=153	=153	=153	=153	=153	=153	=153	=153	=153	=153	=153	=153	=153
4B\]	.	X X 6	4dd\]	.	[1gg	.	4B\]	.	4dd\]	.	00r	00r
4B\	.	.	4dd\	.	.	.	4B\	.	4dd\	.	.	.
4A\	.	.	4cc#\	.	.	.	4A\	.	4cc#\	.	.	.
4G\	.	.	4b\	.	.	.	4G\	.	4b\	.	.	.
=154	=154	=154	=154	=154	=154	=154	=154	=154	=154	=154	=154	=154
1A	.	X X 7	1cc#	.	4gg\]	.	1A	.	1cc#	.	.	.
.	.	.	.	.	4cc#\	.	.	.	.	.	.	.
.	.	.	.	.	4dd\	.	.	.	.	.	.	.
.	.	.	.	.	4ee\	.	.	.	.	.	.	.
!	!	!	!	!	!LO:LB:g=original	!	!	!	!	!	!	!
=155	=155	=155	=155	=155	=155	=155	=155	=155	=155	=155	=155	=155
4d\	.	.	4a/	.	8ff#\L	.	4d\	-men	4a,\	-men	.	.
.	.	.	.	.	8gg#X\J	.	.	.	.	.	.	.
4c#\	.	X X 6	4ee\	.	2aa\	.	4c#\	a-	4ee\	a-	.	.
.	.	.	8qqee/	.	.	.	.	.	8qqee/	.	.	.
2B\	.	X X 7	2dd\	.	.	.	2B\	.	2dd\	.	.	.
.	.	X X 6/	.	.	4gg#X\	.	.	.	.	.	.	.
!	!	!	!LO:LB:g=original	!	!	!	!	!	!	!	!	!
=156	=156	=156	=156	=156	=156	=156	=156	=156	=156	=156	=156	=156
4A\	.	.	4ee\	.	2aa\	.	4A\|	-men	4cc#,\	-men	.	.
4A\	.	.	4cc#\	.	.	.	(4A\	a-	(4cc#\	a-	.	.
4B\	.	X X 6n	4dd\	.	2ggnT\	.	4B\)	.	4dd\	.	.	.
4c#\	.	X X 5	4ee\	.	.	.	4c#\	.	4ee\)	.	.	.
!LO:LB:g=original	!	!	!	!	!	!	!	!	!	!	!	!
=157	=157	=157	=157	=157	=157	=157	=157	=157	=157	=157	=157	=157
4d\	.	.	4a/	.	4ff#\	.	4d\	-men	4ff#,\	-men	4r	4r
4d\	.	.	4ff#\	.	2aa\	.	4d\	et	4ff#\	et	8a/L	8a/L
.	.	.	.	.	.	.	.	.	.	.	8a/J	8a/J
4c#\	.	X X 6	4ee\	.	.	.	(4c#\	vi-	(4ee\	vi-	4a/	4a/
4B\	.	X X 7	4dd\	.	[4aa\	.	4B\)	.	4dd\)	.	4a/	4a/
!	!	!	!	!	!	!	!	!	!	!	!LO:LB:g=original	!
=158	=158	=158	=158	=158	=158	=158	=158	=158	=158	=158	=158	=158
4A\	.	X X 8	4cc#\	.	4aa\]	.	4A\	-tam	4cc#,\	-tam	4a/	4a/
4G\	.	.	4b\	.	2aa\	.	4G\	ven-	4b\	ven-	4a/	4a/
4F#\	.	X X 6	4a/	.	.	.	(4F#\	-tu-	4a\	-tu-	4a/	4a/
4E\	.	X X 6	4g/	.	8bb\L	.	4E\)	.	4g\	.	4a/	4a/
.	.	.	.	.	8ccc#\J	.	.	.	.	.	.	.
!	!	!	!	!	!	!	!	!	!LO:LB:g=original	!	!	!
=159	=159	=159	=159	=159	=159	=159	=159	=159	=159	=159	=159	=159
4D\	.	.	4f#/	.	4ddd\	.	4D\	-ri	4f#,</	-ri	2a/	2a/
4d\	.	.	4ff#\	.	2aa\	.	4d\	et	4ff#\	et	.	.
4c#\	.	X X 6	4ee\	.	.	.	(4c#\	vi-	(4ee\	vi-	2r	2r
4B\	.	X X 7	4dd\	.	[4aa\	.	4B\)	.	4dd\)	.	.	.
=160	=160	=160	=160	=160	=160	=160	=160	=160	=160	=160	=160	=160
!	!	!	!	!	!	!	!	!	!	!	!	!LO:TX:a:t=1
4A\	.	X X 8	4cc#\	.	4aa\]	.	4A\	-tam	4cc#,\	-tam	1r	1r
4G\	.	.	4b\	.	2aa\	.	4G\	ve(n)-	4b\	ven-	.	.
4F#\	.	X X 6	4a/	.	.	.	(4F#\	-tu-	(4a\	-tu-	.	.
4E\	.	X X 6	4g/	.	8bb\L	.	4E\)	.	4g\)	.	.	.
.	.	.	.	.	8ccc#\J	.	.	.	.	.	.	.
=161	=161	=161	=161	=161	=161	=161	=161	=161	=161	=161	=161	=161
4D\	.	.	4f#/	.	4ddd\	.	4D\	-ri	4f#/	-ri	4r	4r
4B\	.	.	4dd\	.	2ff#\	.	(4B\	sae-	(4dd\	sae-	8f#/L	8f#/L
.	.	.	.	.	.	.	.	.	.	.	8f#/J	8f#/J
4A\	.	X X 6	4cc#\	.	.	.	4A\)	.	4cc#\	.	4f#/	4f#/
4G\	.	X X 7	4b\	.	[4ff#\	.	4G\	.	4b\)	.	4f#/	4f#/
=162	=162	=162	=162	=162	=162	=162	=162	=162	=162	=162	=162	=162
4F#\	.	X X #	4a#X/	.	4ff#\]	.	4F#\	.	4a#X\	.	4f#/	4f#/
4E\	.	.	4g/	.	2ff#\	.	8E\	-cu-	8g\	-cu-	4f#/	4f#/
.	.	.	.	.	.	.	8E\	-li	8g,\	-li	.	.
!	!	!	!	!	!	!	!LO:LB:g=original	!	!	!	!	!
4D\	.	X X 6	4f#/	.	.	.	(4D/	a-	(4f#/	a-	4f#/	4f#/
4C#\	.	X X 6/	4e/	.	8gg#X\L	.	4C#/)	.	4e/)	.	4f#/	4f#/
.	.	.	.	.	8aa#X\J	.	.	.	.	.	.	.
=163	=163	=163	=163	=163	=163	=163	=163	=163	=163	=163	=163	=163
4BB/	.	.	4d/	.	4bb\	.	4BB/	-men	4d/	-men	2f#/	2f#/
4B\	.	.	4dd\	.	2ff#\	.	(4B\	a-	4dd\	a-	.	.
4A\	.	X X 6	4cc#\	.	.	.	4A\	.	4cc#\	.	2r	2r
4G\	.	X X 7	4b\	.	[4ff#\	.	4G\)	.	4b\	.	.	.
=164	=164	=164	=164	=164	=164	=164	=164	=164	=164	=164	=164	=164
!	!	!	!	!	!	!	!	!	!	!	!	!LO:TX:a:t=1
4F#\	.	X 8 #	4a#X/	.	4ff#\]	.	4F#\	.	4a#X\	.	1r	1r
4E\	.	.	4g/	.	2ff#\	.	4E\	.	4g\	.	.	.
4D\	.	.	4f#/	.	.	.	4D\	.	4f#/	.	.	.
4C#/	.	X X 6	4e/	.	8gg#X\L	.	4C#/	.	4e/	.	.	.
.	.	X X 6/	.	.	8aa#X\J	.	.	.	.	.	.	.
=165	=165	=165	=165	=165	=165	=165	=165	=165	=165	=165	=165	=165
4BB/	.	.	4d/	.	4bb\	.	4BB/	-men	4d,</	-men	4r	4r
4G\	.	.	4b/	.	2dd\	.	(4G\	a-	2dd\	a-	8d/L	2dd\
.	.	.	.	.	.	.	.	.	.	.	8d/J	.
4F#\	.	X X 6	4a/	.	.	.	4F#\	.	.	.	4d/	.
4E\	.	X X 7	4g/	.	[4dd\	.	4E\)	.	[4dd\	.	4d/	[4dd\
!	!	!	!LO:LB:g=original	!	!	!	!	!	!	!	!	!
=166	=166	=166	=166	=166	=166	=166	=166	=166	=166	=166	=166	=166
4D/	.	X X 8	4f#/	.	4dd\]	.	4D/	.	4dd\]	.	4d/	4dd\]
4Cn/	.	.	4e/	.	2dd\	.	4Cn/	.	2dd\	.	4d/	2dd\
4BB/	.	X X 6	4d/	.	.	.	4BB/	.	.	.	4d/	.
4AA/	.	6 4 2	4cn/	.	8ee\L	.	4AA/	.	8ee\L	.	4d/	8ee\L
.	.	.	.	.	8ff#\J	.	.	.	8ff#\J	.	.	8ff#\J
!	!	!	!	!	!LO:LB:g=original	!	!	!	!	!	!	!LO:LB:g=original
=167	=167	=167	=167	=167	=167	=167	=167	=167	=167	=167	=167	=167
4GG/	.	.	4B/	.	4gg\	.	4GG/	-men	4gg,\	-men	4d/	4gg\
4G\	.	.	4b/	.	2dd\	.	(4G\	a-	2dd\	a-	8d/L	2dd\
.	.	.	.	.	.	.	.	.	.	.	8d/J	.
4F#\	.	X X 6	4a/	.	.	.	4F#\	.	.	.	4d/	.
4E\	.	X X 7	4g/	.	[4dd\	.	4E\)	.	[4dd\	.	4d/	[4dd\
!LO:LB:g=original	!	!	!	!	!	!	!	!	!	!	!	!
=168	=168	=168	=168	=168	=168	=168	=168	=168	=168	=168	=168	=168
4D/	.	X X 8	4f#/	.	4dd\]	.	4D/	.	4dd\]	.	4d/	4dd\]
!	!	!	!	!	!	!	!	!	!LO:LB:g=original	!	!	!
4Cn/	.	.	4e/	.	2dd\	.	4Cn/	.	2dd\	.	4d/	2dd\
4BB/	.	X X 6	4d/	.	.	.	4BB/	.	.	.	4d/	.
4AA/	.	X 6 n	4cn/	.	8ee\L	.	4AA/	.	8ee\L	.	4d/	8ee\L
.	.	.	.	.	8ff#\J	.	.	.	8ff#\J	.	.	8ff#\J
=169	=169	=169	=169	=169	=169	=169	=169	=169	=169	=169	=169	=169
4GG/	.	.	4B/	.	2.gg\	.	4GG/	-men	1gg	.	2d/	2.gg\
4GG/	.	.	4b\	.	.	.	4GG/	a-	.	.	.	.
4BB/	.	X X 6	4dd\	.	.	.	(4BB/	.	.	.	4r	.
4C#X/	.	X X 5	4ee\	.	4gg\	.	4C#X/)	.	.	.	4ee\	4gg\
!	!	!	!	!	!	!	!	!	!	!	!LO:LB:g=original	!
=170	=170	=170	=170	=170	=170	=170	=170	=170	=170	=170	=170	=170
2D\	.	.	4a/	.	4ff#\	.	2D\	-men	2ff#,\	-men	2dd\	4ff#\
.	.	.	8b/L	.	8gg\L	.	.	.	.	.	.	8gg\L
.	.	.	8a/J	.	8ff#\J	.	.	.	.	.	.	8ff#\J
[2G\	.	X X 6	4g/	.	4ee\	.	[2G\	a-	4ee\	a-	2r	4ee\
.	.	.	4f#/	.	4dd\	.	.	.	4dd\	.	.	4dd\
=171	=171	=171	=171	=171	=171	=171	=171	=171	=171	=171	=171	=171
2G\]	.	X 4 2	4e/	.	4cc#\	.	2G\]	.	4cc#\	.	2a/	2ee\
.	.	.	8f#/L	.	4a\	.	.	.	4a\	.	.	.
.	.	.	8g/J	.	.	.	.	.	.	.	.	.
4F#\	.	X X 6	4a/	.	[2dd\	.	4F#\	.	[2dd\	.	2dd\	2ff#\
4G\	.	X X 7	4f#/	.	.	.	4G\	.	.	.	.	.
=172	=172	=172	=172	=172	=172	=172	=172	=172	=172	=172	=172	=172
2A\	.	X X 4	2.e/	.	2dd\]	.	2A\	.	2dd\]	.	2.a/	2.eeT\
2AA/	.	X X 3	.	.	2cc#t\	.	2AA/	.	2cc#t\	.	.	.
.	.	.	4e/	.	.	.	.	.	.	.	4a/	4ee\
!	!	!	!	!	!	!	!LO:LB:g=original	!	!	!	!	!
=173	=173	=173	=173	=173	=173	=173	=173	=173	=173	=173	=173	=173
4D\	.	.	4d/	.	4dd\|	.	4D/	-men	2dd,\	-men	4dd\	4dd\
4d\|	.	.	4dd\|	.	4dd\|	.	4d\	a-	.	.	4r	4r
4c#\|	.	.	4cc#\|	.	4cc#\|	.	4c#\	.	2dd\	a-	2r	2r
4B\|	.	.	4b\|	.	4b\|	.	4B\	.	.	.	.	.
=174	=174	=174	=174|	=174	=174	=174	=174	=174	=174	=174	=174	=174
4A\|	.	X 6 4	4a/|	.	4a/|	.	4A\	.	[1dd	.	4a/	4a/
4B\|	.	.	4b/|	.	4b/|	.	4B\	.	.	.	4r	4r
4A\|	.	.	4a/|	.	4a/|	.	4A\	.	.	.	2r	2r
4G\|	.	.	4g/|	.	4g/|	.	4G\	.	.	.	.	.
!	!	!	!LO:LB:g=original	!	!	!	!	!	!	!	!	!
=175	=175	=175	=175	=175	=175	=175	=175	=175	=175	=175	=175	=175
4F#\|	.	X X 6	4f#/	.	4f#/|	.	4F#\	.	1dd]	.	4f#/	4f#/
4G\|	.	.	4g/	.	4g/|	.	4G\	.	.	.	4r	4r
4F#\|	.	.	4f#/	.	4f#/|	.	4F#\	.	.	.	2r	2r
4E\|	.	.	4e/	.	4e/|	.	4E\	.	.	.	.	.
=176	=176	=176	=176	=176	=176	=176	=176	=176	=176	=176	=176	=176
2D\|	.	.	2d/	.	2d/|	.	2D\	-men	2dd,\	-men	2d/	2d/|
2F#\|	.	X X 6	2dd\|	.	2aa\|	.	2F#\	a-	2dd\	a-	2ff#\|	2aa\|
=177	=177	=177	=177	=177	=177	=177	=177	=177	=177	=177	=177	=177
2G\|	.	.	2dd\|	.	2bb\|	.	2G\	-men	2dd,\	-men	2ee\|	2gg\|
2A\|	.	.	2cc#\|	.	2ee\|	.	2A\	a-	2cc#\	a-	2a/|	2ee\|
=178	=178	=178	=178	=178	=178	=178	=178	=178	=178	=178	=178	=178
2D\	.	.	2dd\	.	2ff# 2a 2d/	.	2D\	-men.	2dd\	-men.	2dd\	2ff#\
!	!	!	!	!	!	!	!	!	!LO:TX:b:i:t=Seq&colon; Sanctus.	!	!	!
2r	.	.	2r	.	2r	.	2r	.	2r	.	2r	2r
!	!	!	!LO:TX:b:i:t=Verte Sanctus.	!	!	!	!	!	!	!	!	!
==	==	==	==	==	==	==	==	==	==	==	==	==
*-	*-	*-	*-	*-	*-	*-	*-	*-	*-	*-	*-	*-
!!!system-decoration: [(g1)][(g2)][(g3)][(s7)]
!!!RDF**kern: | = vertical stroke
!!!RDF**kern: > = above
!!!RDF**kern: < = below
!!!ENC: Mateusz Solarz
!!!END: 2022-03-29
!!!EED: Antoni Szymański
!!!EEV: 2022-04-06
